ISP_LUT/Kennedy.cube
# 3D Color LUT 'Q-DDL_Pack_16 / Kennedy' (http://quickddl.net/free_color_luts)
TITLE "Kennedy"
LUT_3D_SIZE 17
DOMAIN_MIN 0.0 0.0 0.0
DOMAIN_MAX 1.0 1.0 1.0
0.11204102635383606 0.11204102635383606 0.11204102635383606
0.1117229238152504 0.1117229238152504 0.1117229238152504
0.11310521513223648 0.11310521513223648 0.11310521513223648
0.11799468100070953 0.11799468100070953 0.11799468100070953
0.12786906957626343 0.12786906957626343 0.12786906957626343
0.14387135207653046 0.14387135207653046 0.14387135207653046
0.16675186157226562 0.16675186157226562 0.16675186157226562
0.19678822159767151 0.19678822159767151 0.19678822159767151
0.23374040424823761 0.23374040424823761 0.23374040424823761
0.27687188982963562 0.27687188982963562 0.27687188982963562
0.32496276497840881 0.32496276497840881 0.32496276497840881
0.37622055411338806 0.37622055411338806 0.37622055411338806
0.42849338054656982 0.42849338054656982 0.42849338054656982
0.4797440767288208 0.4797440767288208 0.4797440767288208
0.52799427509307861 0.52799427509307861 0.52799427509307861
0.57039523124694824 0.57039523124694824 0.57039523124694824
0.60114336013793945 0.60114336013793945 0.60114336013793945
0.11986443400382996 0.11986443400382996 0.11986443400382996
0.11917637288570404 0.11917637288570404 0.11917637288570404
0.1201217845082283 0.1201217845082283 0.1201217845082283
0.12464004009962082 0.12464004009962082 0.12464004009962082
0.13432066142559052 0.13432066142559052 0.13432066142559052
0.15036766231060028 0.15036766231060028 0.15036766231060028
0.17349284887313843 0.17349284887313843 0.17349284887313843
0.20384854078292847 0.20384854078292847 0.20384854078292847
0.24105916917324066 0.24105916917324066 0.24105916917324066
0.28432559967041016 0.28432559967041016 0.28432559967041016
0.33245313167572021 0.33245313167572021 0.33245313167572021
0.38367003202438354 0.38367003202438354 0.38367003202438354
0.43579089641571045 0.43579089641571045 0.43579089641571045
0.48674669861793518 0.48674669861793518 0.48674669861793518
0.5345609188079834 0.5345609188079834 0.5345609188079834
0.57644885778427124 0.57644885778427124 0.57644885778427124
0.60676860809326172 0.60676860809326172 0.60676860809326172
0.13332197070121765 0.13332197070121765 0.13332197070121765
0.13211452960968018 0.13211452960968018 0.13211452960968018
0.13242165744304657 0.13242165744304657 0.13242165744304657
0.13637340068817139 0.13637340068817139 0.13637340068817139
0.14573924243450165 0.14573924243450165 0.14573924243450165
0.1618335098028183 0.1618335098028183 0.1618335098028183
0.18532255291938782 0.18532255291938782 0.18532255291938782
0.21616905927658081 0.21616905927658081 0.21616905927658081
0.25376522541046143 0.25376522541046143 0.25376522541046143
0.29713663458824158 0.29713663458824158 0.29713663458824158
0.3450104296207428 0.3450104296207428 0.3450104296207428
0.39564630389213562 0.39564630389213562 0.39564630389213562
0.44695007801055908 0.44695007801055908 0.44695007801055908
0.4969182014465332 0.4969182014465332 0.4969182014465332
0.54363083839416504 0.54363083839416504 0.54363083839416504
0.58442634344100952 0.58442634344100952 0.58442634344100952
0.61391347646713257 0.61391347646713257 0.61391347646713257
0.15317049622535706 0.15317049622535706 0.15317049622535706
0.15128940343856812 0.15128940343856812 0.15128940343856812
0.15070630609989166 0.15070630609989166 0.15070630609989166
0.15380494296550751 0.15380494296550751 0.15380494296550751
0.16261731088161469 0.16261731088161469 0.16261731088161469
0.17862732708454132 0.17862732708454132 0.17862732708454132
0.20246061682701111 0.20246061682701111 0.20246061682701111
0.23383705317974091 0.23383705317974091 0.23383705317974091
0.27182018756866455 0.27182018756866455 0.27182018756866455
0.31514137983322144 0.31514137983322144 0.31514137983322144
0.36235472559928894 0.36235472559928894 0.36235472559928894
0.41176256537437439 0.41176256537437439 0.41176256537437439
0.46147298812866211 0.46147298812866211 0.46147298812866211
0.50966137647628784 0.50966137647628784 0.50966137647628784
0.55454391241073608 0.55454391241073608 0.55454391241073608
0.59364408254623413 0.59364408254623413 0.59364408254623413
0.62188732624053955 0.62188732624053955 0.62188732624053955
0.17997469007968903 0.17997469007968903 0.17997469007968903
0.17724180221557617 0.17724180221557617 0.17724180221557617
0.17545127868652344 0.17545127868652344 0.17545127868652344
0.17730672657489777 0.17730672657489777 0.17730672657489777
0.1851956695318222 0.1851956695318222 0.1851956695318222
0.20083382725715637 0.20083382725715637 0.20083382725715637
0.22481259703636169 0.22481259703636169 0.22481259703636169
0.25656613707542419 0.25656613707542419 0.25656613707542419
0.29475575685501099 0.29475575685501099 0.29475575685501099
0.33774888515472412 0.33774888515472412 0.33774888515472412
0.38390305638313293 0.38390305638313293 0.38390305638313293
0.43157222867012024 0.43157222867012024 0.43157222867012024
0.4790903627872467 0.4790903627872467 0.4790903627872467
0.52486222982406616 0.52486222982406616 0.52486222982406616
0.56730246543884277 0.56730246543884277 0.56730246543884277
0.60417801141738892 0.60417801141738892 0.60417801141738892
0.63079893589019775 0.63079893589019775 0.63079893589019775
0.21358613669872284 0.21358613669872284 0.21358613669872284
0.20984601974487305 0.20984601974487305 0.20984601974487305
0.20654749870300293 0.20654749870300293 0.20654749870300293
0.20675741136074066 0.20675741136074066 0.20675741136074066
0.21330124139785767 0.21330124139785767 0.21330124139785767
0.22818325459957123 0.22818325459957123 0.22818325459957123
0.25196096301078796 0.25196096301078796 0.25196096301078796
0.28375780582427979 0.28375780582427979 0.28375780582427979
0.32180926203727722 0.32180926203727722 0.32180926203727722
0.36411470174789429 0.36411470174789429 0.36411470174789429
0.40885436534881592 0.40885436534881592 0.40885436534881592
0.45443198084831238 0.45443198084831238 0.45443198084831238
0.49937134981155396 0.49937134981155396 0.49937134981155396
0.54229152202606201 0.54229152202606201 0.54229152202606201
0.5818297266960144 0.5818297266960144 0.5818297266960144
0.61604702472686768 0.61604702472686768 0.61604702472686768
0.64071601629257202 0.64071601629257202 0.64071601629257202
0.25315812230110168 0.25315812230110168 0.25315812230110168
0.248363196849823 0.248363196849823 0.248363196849823
0.24340417981147766 0.24340417981147766 0.24340417981147766
0.24169217050075531 0.24169217050075531 0.24169217050075531
0.24653016030788422 0.24653016030788422 0.24653016030788422
0.26025369763374329 0.26025369763374329 0.26025369763374329
0.28337562084197998 0.28337562084197998 0.28337562084197998
0.31471008062362671 0.31471008062362671 0.31471008062362671
0.35211583971977234 0.35211583971977234 0.35211583971977234
0.39329168200492859 0.39329168200492859 0.39329168200492859
0.43628260493278503 0.43628260493278503 0.43628260493278503
0.47952175140380859 0.47952175140380859 0.47952175140380859
0.52165389060974121 0.52165389060974121 0.52165389060974121
0.56145137548446655 0.56145137548446655 0.56145137548446655
0.5977635383605957 0.5977635383605957 0.5977635383605957
0.62898904085159302 0.62898904085159302 0.62898904085159302
0.65144228935241699 0.65144228935241699 0.65144228935241699
0.29753190279006958 0.29753190279006958 0.29753190279006958
0.29185590147972107 0.29185590147972107 0.29185590147972107
0.28540453314781189 0.28540453314781189 0.28540453314781189
0.28180566430091858 0.28180566430091858 0.28180566430091858
0.28477156162261963 0.28477156162261963 0.28477156162261963
0.2969622015953064 0.2969622015953064 0.2969622015953064
0.31884473562240601 0.31884473562240601 0.31884473562240601
0.34899136424064636 0.34899136424064636 0.34899136424064636
0.38502237200737 0.38502237200737 0.38502237200737
0.42447024583816528 0.42447024583816528 0.42447024583816528
0.46530264616012573 0.46530264616012573 0.46530264616012573
0.50595289468765259 0.50595289468765259 0.50595289468765259
0.54510527849197388 0.54510527849197388 0.54510527849197388
0.58160018920898438 0.58160018920898438 0.58160018920898438
0.61446499824523926 0.61446499824523926 0.61446499824523926
0.64246964454650879 0.64246964454650879 0.64246964454650879
0.66252946853637695 0.66252946853637695 0.66252946853637695
0.34561675786972046 0.34561675786972046 0.34561675786972046
0.33953770995140076 0.33953770995140076 0.33953770995140076
0.33222043514251709 0.33222043514251709 0.33222043514251709
0.32726040482521057 0.32726040482521057 0.32726040482521057
0.32851549983024597 0.32851549983024597 0.32851549983024597
0.33883267641067505 0.33883267641067505 0.33883267641067505
0.35870751738548279 0.35870751738548279 0.35870751738548279
0.38667213916778564 0.38667213916778564 0.38667213916778564
0.42032387852668762 0.42032387852668762 0.42032387852668762
0.45719230175018311 0.45719230175018311 0.45719230175018311
0.49523869156837463 0.49523869156837463 0.49523869156837463
0.53288424015045166 0.53288424015045166 0.53288424015045166
0.56879609823226929 0.56879609823226929 0.56879609823226929
0.60181039571762085 0.60181039571762085 0.60181039571762085
0.63108581304550171 0.63108581304550171 0.63108581304550171
0.6557655930519104 0.6557655930519104 0.6557655930519104
0.6733698844909668 0.6733698844909668 0.6733698844909668
0.39639967679977417 0.39639967679977417 0.39639967679977417
0.39063742756843567 0.39063742756843567 0.39063742756843567
0.3834567666053772 0.3834567666053772 0.3834567666053772
0.37810677289962769 0.37810677289962769 0.37810677289962769
0.3781607449054718 0.3781607449054718 0.3781607449054718
0.38635906577110291 0.38635906577110291 0.38635906577110291
0.40336984395980835 0.40336984395980835 0.40336984395980835
0.42799511551856995 0.42799511551856995 0.42799511551856995
0.45806139707565308 0.45806139707565308 0.45806139707565308
0.49125784635543823 0.49125784635543823 0.49125784635543823
0.5256192684173584 0.5256192684173584 0.5256192684173584
0.55957728624343872 0.55957728624343872 0.55957728624343872
0.59178560972213745 0.59178560972213745 0.59178560972213745
0.62107563018798828 0.62107563018798828 0.62107563018798828
0.64670640230178833 0.64670640230178833 0.64670640230178833
0.66811805963516235 0.66811805963516235 0.66811805963516235
0.68334442377090454 0.68334442377090454 0.68334442377090454
0.44868233799934387 0.44868233799934387 0.44868233799934387
0.44396787881851196 0.44396787881851196 0.44396787881851196
0.43793877959251404 0.43793877959251404 0.43793877959251404
0.43321380019187927 0.43321380019187927 0.43321380019187927
0.43272021412849426 0.43272021412849426 0.43272021412849426
0.43881475925445557 0.43881475925445557 0.43881475925445557
0.45235943794250488 0.45235943794250488 0.45235943794250488
0.47264990210533142 0.47264990210533142 0.47264990210533142
0.49798578023910522 0.49798578023910522 0.49798578023910522
0.52638643980026245 0.52638643980026245 0.52638643980026245
0.55605530738830566 0.55605530738830566 0.55605530738830566
0.58548712730407715 0.58548712730407715 0.58548712730407715
0.61338090896606445 0.61338090896606445 0.61338090896606445
0.63865119218826294 0.63865119218826294 0.63865119218826294
0.66066080331802368 0.66066080331802368 0.66066080331802368
0.67898982763290405 0.67898982763290405 0.67898982763290405
0.69201982021331787 0.69201982021331787 0.69201982021331787
0.50095051527023315 0.50095051527023315 0.50095051527023315
0.49780696630477905 0.49780696630477905 0.49780696630477905
0.49364525079727173 0.49364525079727173 0.49364525079727173
0.49028131365776062 0.49028131365776062 0.49028131365776062
0.48981958627700806 0.48981958627700806 0.48981958627700806
0.49406152963638306 0.49406152963638306 0.49406152963638306
0.50395369529724121 0.50395369529724121 0.50395369529724121
0.51934880018234253 0.51934880018234253 0.51934880018234253
0.5391845703125 0.5391845703125 0.5391845703125
0.5619586706161499 0.5619586706161499 0.5619586706161499
0.58614420890808105 0.58614420890808105 0.58614420890808105
0.61037099361419678 0.61037099361419678 0.61037099361419678
0.63345599174499512 0.63345599174499512 0.63345599174499512
0.65446865558624268 0.65446865558624268 0.65446865558624268
0.67287653684616089 0.67287653684616089 0.67287653684616089
0.68828767538070679 0.68828767538070679 0.68828767538070679
0.69929248094558716 0.69929248094558716 0.69929248094558716
0.55149221420288086 0.55149221420288086 0.55149221420288086
0.55012983083724976 0.55012983083724976 0.55012983083724976
0.54813539981842041 0.54813539981842041 0.54813539981842041
0.54648894071578979 0.54648894071578979 0.54648894071578979
0.54643720388412476 0.54643720388412476 0.54643720388412476
0.54914069175720215 0.54914069175720215 0.54914069175720215
0.55552822351455688 0.55552822351455688 0.55552822351455688
0.56598377227783203 0.56598377227783203 0.56598377227783203
0.58012145757675171 0.58012145757675171 0.58012145757675171
0.59697872400283813 0.59697872400283813 0.59697872400283813
0.61536657810211182 0.61536657810211182 0.61536657810211182
0.6341167688369751 0.6341167688369751 0.6341167688369751
0.65221118927001953 0.65221118927001953 0.65221118927001953
0.66888535022735596 0.66888535022735596 0.66888535022735596
0.68369859457015991 0.68369859457015991 0.68369859457015991
0.69627100229263306 0.69627100229263306 0.69627100229263306
0.70534950494766235 0.70534950494766235 0.70534950494766235
0.59859699010848999 0.59859699010848999 0.59859699010848999
0.59889048337936401 0.59889048337936401 0.59889048337936401
0.59892290830612183 0.59892290830612183 0.59892290830612183
0.59893614053726196 0.59893614053726196 0.59893614053726196
0.59940546751022339 0.59940546751022339 0.59940546751022339
0.60085767507553101 0.60085767507553101 0.60085767507553101
0.60415226221084595 0.60415226221084595 0.60415226221084595
0.61012262105941772 0.61012262105941772 0.61012262105941772
0.61896860599517822 0.61896860599517822 0.61896860599517822
0.6302223801612854 0.6302223801612854 0.6302223801612854
0.6430433988571167 0.6430433988571167 0.6430433988571167
0.65650153160095215 0.65650153160095215 0.65650153160095215
0.66976457834243774 0.66976457834243774 0.66976457834243774
0.68222051858901978 0.68222051858901978 0.68222051858901978
0.69351428747177124 0.69351428747177124 0.69351428747177124
0.70330905914306641 0.70330905914306641 0.70330905914306641
0.71051955223083496 0.71051955223083496 0.71051955223083496
0.64062529802322388 0.64062529802322388 0.64062529802322388
0.64216279983520508 0.64216279983520508 0.64216279983520508
0.64368438720703125 0.64368438720703125 0.64368438720703125
0.64488899707794189 0.64488899707794189 0.64488899707794189
0.64570176601409912 0.64570176601409912 0.64570176601409912
0.64617377519607544 0.64617377519607544 0.64617377519607544
0.64705896377563477 0.64705896377563477 0.64705896377563477
0.64944559335708618 0.64944559335708618 0.64944559335708618
0.65392023324966431 0.65392023324966431 0.65392023324966431
0.66039502620697021 0.66039502620697021 0.66039502620697021
0.66834676265716553 0.66834676265716553 0.66834676265716553
0.67709213495254517 0.67709213495254517 0.67709213495254517
0.6859900951385498 0.6859900951385498 0.6859900951385498
0.69457012414932251 0.69457012414932251 0.69457012414932251
0.70256519317626953 0.70256519317626953 0.70256519317626953
0.70971745252609253 0.70971745252609253 0.70971745252609253
0.71514230966567993 0.71514230966567993 0.71514230966567993
0.67560547590255737 0.67560547590255737 0.67560547590255737
0.67784619331359863 0.67784619331359863 0.67784619331359863
0.68013620376586914 0.68013620376586914 0.68013620376586914
0.68184918165206909 0.68184918165206909 0.68184918165206909
0.68265914916992188 0.68265914916992188 0.68265914916992188
0.68243294954299927 0.68243294954299927 0.68243294954299927
0.68177628517150879 0.68177628517150879 0.68177628517150879
0.68174606561660767 0.68174606561660767 0.68174606561660767
0.68307638168334961 0.68307638168334961 0.68307638168334961
0.68593144416809082 0.68593144416809082 0.68593144416809082
0.69005346298217773 0.69005346298217773 0.69005346298217773
0.69499087333679199 0.69499087333679199 0.69499087333679199
0.70028501749038696 0.70028501749038696 0.70028501749038696
0.70559561252593994 0.70559561252593994 0.70559561252593994
0.7107422947883606 0.7107422947883606 0.7107422947883606
0.71556335687637329 0.71556335687637329 0.71556335687637329
0.71939098834991455 0.71939098834991455 0.71939098834991455
0.69989174604415894 0.69989174604415894 0.69989174604415894
0.70240515470504761 0.70240515470504761 0.70240515470504761
0.7049289345741272 0.7049289345741272 0.7049289345741272
0.70669031143188477 0.70669031143188477 0.70669031143188477
0.70731621980667114 0.70731621980667114 0.70731621980667114
0.70667123794555664 0.70667123794555664 0.70667123794555664
0.70522850751876831 0.70522850751876831 0.70522850751876831
0.70388084650039673 0.70388084650039673 0.70388084650039673
0.70335590839385986 0.70335590839385986 0.70335590839385986
0.70394891500473022 0.70394891500473022 0.70394891500473022
0.70558285713195801 0.70558285713195801 0.70558285713195801
0.70797902345657349 0.70797902345657349 0.70797902345657349
0.71081894636154175 0.71081894636154175 0.71081894636154175
0.71386259794235229 0.71386259794235229 0.71386259794235229
0.7169983983039856 0.7169983983039856 0.7169983983039856
0.7201429009437561 0.7201429009437561 0.7201429009437561
0.72280359268188477 0.72280359268188477 0.72280359268188477
0.11876443773508072 0.11876443773508072 0.11876443773508072
0.11862022429704666 0.11862022429704666 0.11862022429704666
0.12018873542547226 0.12018873542547226 0.12018873542547226
0.12516455352306366 0.12516455352306366 0.12516455352306366
0.13500280678272247 0.13500280678272247 0.13500280678272247
0.15092967450618744 0.15092967450618744 0.15092967450618744
0.17386335134506226 0.17386335134506226 0.17386335134506226
0.20427161455154419 0.20427161455154419 0.20427161455154419
0.24197249114513397 0.24197249114513397 0.24197249114513397
0.28598591685295105 0.28598591685295105 0.28598591685295105
0.3346327543258667 0.3346327543258667 0.3346327543258667
0.38582491874694824 0.38582491874694824 0.38582491874694824
0.43745982646942139 0.43745982646942139 0.43745982646942139
0.48770907521247864 0.48770907521247864 0.48770907521247864
0.53480595350265503 0.53480595350265503 0.53480595350265503
0.57609933614730835 0.57609933614730835 0.57609933614730835
0.60602855682373047 0.60602855682373047 0.60602855682373047
0.12606866657733917 0.12606866657733917 0.12606866657733917
0.12558004260063171 0.12558004260063171 0.12558004260063171
0.12673954665660858 0.12673954665660858 0.12673954665660858
0.13137497007846832 0.13137497007846832 0.13137497007846832
0.14106908440589905 0.14106908440589905 0.14106908440589905
0.15711884200572968 0.15711884200572968 0.15711884200572968
0.18037942051887512 0.18037942051887512 0.18037942051887512
0.21114128828048706 0.21114128828048706 0.21114128828048706
0.24905242025852203 0.24905242025852203 0.24905242025852203
0.2930920422077179 0.2930920422077179 0.2930920422077179
0.34166443347930908 0.34166443347930908 0.34166443347930908
0.39275434613227844 0.39275434613227844 0.39275434613227844
0.4442456066608429 0.4442456066608429 0.4442456066608429
0.4942646324634552 0.4942646324634552 0.4942646324634552
0.54102498292922974 0.54102498292922974 0.54102498292922974
0.58191889524459839 0.58191889524459839 0.58191889524459839
0.61151361465454102 0.61151361465454102 0.61151361465454102
0.13918277621269226 0.13918277621269226 0.13918277621269226
0.13820235431194305 0.13820235431194305 0.13820235431194305
0.13872583210468292 0.13872583210468292 0.13872583210468292
0.14277306199073792 0.14277306199073792 0.14277306199073792
0.15214651823043823 0.15214651823043823 0.15214651823043823
0.16828534007072449 0.16828534007072449 0.16828534007072449
0.19197240471839905 0.19197240471839905 0.19197240471839905
0.2232300192117691 0.2232300192117691 0.2232300192117691
0.26141563057899475 0.26141563057899475 0.26141563057899475
0.30536550283432007 0.30536550283432007 0.30536550283432007
0.35351476073265076 0.35351476073265076 0.35351476073265076
0.40396028757095337 0.40396028757095337 0.40396028757095337
0.45467701554298401 0.45467701554298401 0.45467701554298401
0.5038222074508667 0.5038222074508667 0.5038222074508667
0.54963171482086182 0.54963171482086182 0.54963171482086182
0.58959001302719116 0.58959001302719116 0.58959001302719116
0.61847257614135742 0.61847257614135742 0.61847257614135742
0.15927472710609436 0.15927472710609436 0.15927472710609436
0.15763640403747559 0.15763640403747559 0.15763640403747559
0.1572175920009613 0.1572175920009613 0.1572175920009613
0.16029410064220428 0.16029410064220428 0.16029410064220428
0.16899603605270386 0.16899603605270386 0.16899603605270386
0.18499261140823364 0.18499261140823364 0.18499261140823364
0.20901460945606232 0.20901460945606232 0.20901460945606232
0.24076072871685028 0.24076072871685028 0.24076072871685028
0.27918675541877747 0.27918675541877747 0.27918675541877747
0.32285484671592712 0.32285484671592712 0.32285484671592712
0.37014231085777283 0.37014231085777283 0.37014231085777283
0.41927921772003174 0.41927921772003174 0.41927921772003174
0.46843937039375305 0.46843937039375305 0.46843937039375305
0.51591843366622925 0.51591843366622925 0.51591843366622925
0.56004899740219116 0.56004899740219116 0.56004899740219116
0.5984642505645752 0.5984642505645752 0.5984642505645752
0.62621551752090454 0.62621551752090454 0.62621551752090454
0.18713214993476868 0.18713214993476868 0.18713214993476868
0.18463315069675446 0.18463315069675446 0.18463315069675446
0.18289183080196381 0.18289183080196381 0.18289183080196381
0.18451134860515594 0.18451134860515594 0.18451134860515594
0.1920551210641861 0.1920551210641861 0.1920551210641861
0.20749868452548981 0.20749868452548981 0.20749868452548981
0.23155663907527924 0.23155663907527924 0.23155663907527924
0.26358869671821594 0.26358869671821594 0.26358869671821594
0.30207061767578125 0.30207061767578125 0.30207061767578125
0.34518513083457947 0.34518513083457947 0.34518513083457947
0.39119294285774231 0.39119294285774231 0.39119294285774231
0.43846186995506287 0.43846186995506287 0.43846186995506287
0.4854089617729187 0.4854089617729187 0.4854089617729187
0.5305335521697998 0.5305335521697998 0.5305335521697998
0.57233089208602905 0.57233089208602905 0.57233089208602905
0.6086394190788269 0.6086394190788269 0.6086394190788269
0.6348576545715332 0.6348576545715332 0.6348576545715332
0.22251231968402863 0.22251231968402863 0.22251231968402863
0.21896778047084808 0.21896778047084808 0.21896778047084808
0.21555650234222412 0.21555650234222412 0.21555650234222412
0.21525943279266357 0.21525943279266357 0.21525943279266357
0.2211432009935379 0.2211432009935379 0.2211432009935379
0.23553682863712311 0.23553682863712311 0.23553682863712311
0.259174644947052 0.259174644947052 0.259174644947052
0.2911013662815094 0.2911013662815094 0.2911013662815094
0.32929620146751404 0.32929620146751404 0.32929620146751404
0.37151944637298584 0.37151944637298584 0.37151944637298584
0.41589018702507019 0.41589018702507019 0.41589018702507019
0.460898756980896 0.460898756980896 0.460898756980896
0.5051872730255127 0.5051872730255127 0.5051872730255127
0.54746347665786743 0.54746347665786743 0.54746347665786743
0.58641856908798218 0.58641856908798218 0.58641856908798218
0.62015002965927124 0.62015002965927124 0.62015002965927124
0.64448237419128418 0.64448237419128418 0.64448237419128418
0.26410520076751709 0.26410520076751709 0.26410520076751709
0.25944197177886963 0.25944197177886963 0.25944197177886963
0.25419878959655762 0.25419878959655762 0.25419878959655762
0.25171217322349548 0.25171217322349548 0.25171217322349548
0.25555118918418884 0.25555118918418884 0.25555118918418884
0.26841628551483154 0.26841628551483154 0.26841628551483154
0.29108646512031555 0.29108646512031555 0.29108646512031555
0.32234469056129456 0.32234469056129456 0.32234469056129456
0.3597455620765686 0.3597455620765686 0.3597455620765686
