ISP_LUT/Kennedy.cube
# 3D Color LUT 'Q-DDL_Pack_16 / Kennedy' (http://quickddl.net/free_color_luts)
TITLE "Kennedy"
LUT_3D_SIZE 5
DOMAIN_MIN 0.0 0.0 0.0
DOMAIN_MAX 1.0 1.0 1.0
0.11204102635383606 0.11204102635383606 0.11204102635383606
0.12786906957626343 0.12786906957626343 0.12786906957626343
0.23374040424823761 0.23374040424823761 0.23374040424823761
0.42849338054656982 0.42849338054656982 0.42849338054656982
0.60114336013793945 0.60114336013793945 0.60114336013793945
0.17997469007968903 0.17997469007968903 0.17997469007968903
0.1851956695318222 0.1851956695318222 0.1851956695318222
0.29475575685501099 0.29475575685501099 0.29475575685501099
0.4790903627872467 0.4790903627872467 0.4790903627872467
0.63079893589019775 0.63079893589019775 0.63079893589019775
0.34561675786972046 0.34561675786972046 0.34561675786972046
0.32851549983024597 0.32851549983024597 0.32851549983024597
0.42032387852668762 0.42032387852668762 0.42032387852668762
0.56879609823226929 0.56879609823226929 0.56879609823226929
0.6733698844909668 0.6733698844909668 0.6733698844909668
0.55149221420288086 0.55149221420288086 0.55149221420288086
0.54643720388412476 0.54643720388412476 0.54643720388412476
0.58012145757675171 0.58012145757675171 0.58012145757675171
0.65221118927001953 0.65221118927001953 0.65221118927001953
0.70534950494766235 0.70534950494766235 0.70534950494766235
0.69989174604415894 0.69989174604415894 0.69989174604415894
0.70731621980667114 0.70731621980667114 0.70731621980667114
0.70335590839385986 0.70335590839385986 0.70335590839385986
0.71081894636154175 0.71081894636154175 0.71081894636154175
0.72280359268188477 0.72280359268188477 0.72280359268188477
0.1741064041852951 0.1741064041852951 0.1741064041852951
0.19913658499717712 0.19913658499717712 0.19913658499717712
0.29804831743240356 0.29804831743240356 0.29804831743240356
0.4809240996837616 0.4809240996837616 0.4809240996837616
0.62255275249481201 0.62255275249481201 0.62255275249481201
0.23148831725120544 0.23148831725120544 0.23148831725120544
0.24879854917526245 0.24879854917526245 0.24879854917526245
0.34947380423545837 0.34947380423545837 0.34947380423545837
0.51426088809967041 0.51426088809967041 0.51426088809967041
0.64779877662658691 0.64779877662658691 0.64779877662658691
0.42485114932060242 0.42485114932060242 0.42485114932060242
0.40246781706809998 0.40246781706809998 0.40246781706809998
0.46941357851028442 0.46941357851028442 0.46941357851028442
0.59256833791732788 0.59256833791732788 0.59256833791732788
0.68444287776947021 0.68444287776947021 0.68444287776947021
0.60708403587341309 0.60708403587341309 0.60708403587341309
0.58874672651290894 0.58874672651290894 0.58874672651290894
0.60764718055725098 0.60764718055725098 0.60764718055725098
0.6670994758605957 0.6670994758605957 0.6670994758605957
0.71425783634185791 0.71425783634185791 0.71425783634185791
0.70871531963348389 0.70871531963348389 0.70871531963348389
0.70633447170257568 0.70633447170257568 0.70633447170257568
0.70785892009735107 0.70785892009735107 0.70785892009735107
0.71849942207336426 0.71849942207336426 0.71849942207336426
0.73227763175964355 0.73227763175964355 0.73227763175964355
0.3686758279800415 0.3686758279800415 0.3686758279800415
0.40600457787513733 0.40600457787513733 0.40600457787513733
0.47204163670539856 0.47204163670539856 0.47204163670539856
0.55497676134109497 0.55497676134109497 0.55497676134109497
0.64981895685195923 0.64981895685195923 0.64981895685195923
0.3902970552444458 0.3902970552444458 0.3902970552444458
0.42326000332832336 0.42326000332832336 0.42326000332832336
0.49649876356124878 0.49649876356124878 0.49649876356124878
0.58230584859848022 0.58230584859848022 0.58230584859848022
0.67017525434494019 0.67017525434494019 0.67017525434494019
0.4985659122467041 0.4985659122467041 0.4985659122467041
0.51632457971572876 0.51632457971572876 0.51632457971572876
0.56895440816879272 0.56895440816879272 0.56895440816879272
0.63887882232666016 0.63887882232666016 0.63887882232666016
0.69801980257034302 0.69801980257034302 0.69801980257034302
0.65589576959609985 0.65589576959609985 0.65589576959609985
0.65983933210372925 0.65983933210372925 0.65983933210372925
0.6653018593788147 0.6653018593788147 0.6653018593788147
0.69131362438201904 0.69131362438201904 0.69131362438201904
0.72103816270828247 0.72103816270828247 0.72103816270828247
0.71908974647521973 0.71908974647521973 0.71908974647521973
0.7199663519859314 0.7199663519859314 0.7199663519859314
0.72114789485931396 0.72114789485931396 0.72114789485931396
0.72604072093963623 0.72604072093963623 0.72604072093963623
0.73581624031066895 0.73581624031066895 0.73581624031066895
0.59483850002288818 0.59483850002288818 0.59483850002288818
0.61666595935821533 0.61666595935821533 0.61666595935821533
0.65830510854721069 0.65830510854721069 0.65830510854721069
0.6653105616569519 0.6653105616569519 0.6653105616569519
0.69237273931503296 0.69237273931503296 0.69237273931503296
0.62047135829925537 0.62047135829925537 0.62047135829925537
0.62116152048110962 0.62116152048110962 0.62116152048110962
0.65832376480102539 0.65832376480102539 0.65832376480102539
0.67779600620269775 0.67779600620269775 0.67779600620269775
0.70533907413482666 0.70533907413482666 0.70533907413482666
0.62500256299972534 0.62500256299972534 0.62500256299972534
0.6345895528793335 0.6345895528793335 0.6345895528793335
0.66895729303359985 0.66895729303359985 0.66895729303359985
0.69387513399124146 0.69387513399124146 0.69387513399124146
0.71767455339431763 0.71767455339431763 0.71767455339431763
0.68575155735015869 0.68575155735015869 0.68575155735015869
0.69627922773361206 0.69627922773361206 0.69627922773361206
0.70479059219360352 0.70479059219360352 0.70479059219360352
0.71325850486755371 0.71325850486755371 0.71325850486755371
0.72610706090927124 0.72610706090927124 0.72610706090927124
0.72384512424468994 0.72384512424468994 0.72384512424468994
0.72954332828521729 0.72954332828521729 0.72954332828521729
0.73019886016845703 0.73019886016845703 0.73019886016845703
0.72884845733642578 0.72884845733642578 0.72884845733642578
0.7320898175239563 0.7320898175239563 0.7320898175239563
0.71495884656906128 0.71495884656906128 0.71495884656906128
0.71778368949890137 0.71778368949890137 0.71778368949890137
0.72111237049102783 0.72111237049102783 0.72111237049102783
0.72077035903930664 0.72077035903930664 0.72077035903930664
0.72263765335083008 0.72263765335083008 0.72263765335083008
0.72457706928253174 0.72457706928253174 0.72457706928253174
0.71774572134017944 0.71774572134017944 0.71774572134017944
0.71767783164978027 0.71767783164978027 0.71767783164978027
0.72313916683197021 0.72313916683197021 0.72313916683197021
0.72949904203414917 0.72949904203414917 0.72949904203414917
0.71400785446166992 0.71400785446166992 0.71400785446166992
0.7131769061088562 0.7131769061088562 0.7131769061088562
0.71738582849502563 0.71738582849502563 0.71738582849502563
0.7233576774597168 0.7233576774597168 0.7233576774597168
0.73130160570144653 0.73130160570144653 0.73130160570144653
0.71742033958435059 0.71742033958435059 0.71742033958435059
0.72212767601013184 0.72212767601013184 0.72212767601013184
0.72456347942352295 0.72456347942352295 0.72456347942352295
0.72501736879348755 0.72501736879348755 0.72501736879348755
0.72879505157470703 0.72879505157470703 0.72879505157470703
0.72568190097808838 0.72568190097808838 0.72568190097808838
0.73190724849700928 0.73190724849700928 0.73190724849700928
0.73246991634368896 0.73246991634368896 0.73246991634368896
0.72821420431137085 0.72821420431137085 0.72821420431137085
0.72666800022125244 0.72666800022125244 0.72666800022125244
