ISP_LUT/Levine.cube
# 3D Color LUT 'Q-DDL_Pack_16 / Levine' (http://quickddl.net/free_color_luts)
TITLE "Levine"
LUT_3D_SIZE 5
DOMAIN_MIN 0.0 0.0 0.0
DOMAIN_MAX 1.0 1.0 1.0
0.12825007736682892 0.13557186722755432 0.028525823727250099
0.24524247646331787 0.13227681815624237 0.02428283728659153
0.4890686571598053 0.090785078704357147 0.0011416904162615538
0.67262536287307739 0.073646977543830872 0.0010906262323260307
0.75334709882736206 0.09554021805524826 0.012242024764418602
0.10571557283401489 0.24745407700538635 0.013875370845198631
0.23852923512458801 0.26228064298629761 0.018228327855467796
0.51206755638122559 0.25350528955459595 0.010846116580069065
0.72545903921127319 0.26789098978042603 0.027698289602994919
0.82219773530960083 0.31347879767417908 0.085114017128944397
0.070528507232666016 0.50794297456741333 0.0012028823839500546
0.22984741628170013 0.53704297542572021 0.012392769567668438
0.509765625 0.54064500331878662 0.011275673285126686
0.72644686698913574 0.55826359987258911 0.033290054649114609
0.81770473718643188 0.598125159740448 0.077846504747867584
0.13756309449672699 0.77108430862426758 0.04571807011961937
0.28954312205314636 0.78537547588348389 0.075067535042762756
0.54480886459350586 0.77057677507400513 0.057863812893629074
0.73979365825653076 0.76638913154602051 0.04870055615901947
0.80490893125534058 0.78578996658325195 0.059750963002443314
0.24103038012981415 0.91312861442565918 0.17856653034687042
0.36070716381072998 0.91285508871078491 0.17895479500293732
0.59159201383590698 0.88105571269989014 0.12507081031799316
0.76789480447769165 0.85417991876602173 0.080322764813899994
0.81915998458862305 0.85306239128112793 0.060309752821922302
0.12771926820278168 0.13736636936664581 0.18849299848079681
0.24055120348930359 0.12775041162967682 0.17454534769058228
0.47846496105194092 0.088036119937896729 0.12308657914400101
0.66773325204849243 0.071050584316253662 0.11365667730569839
0.75356382131576538 0.1021580770611763 0.15074914693832397
0.10567076504230499 0.25093147158622742 0.15984630584716797
0.24297250807285309 0.26894721388816833 0.17917698621749878
0.51432323455810547 0.2618480920791626 0.17814561724662781
0.7357795238494873 0.27296721935272217 0.2048659473657608
0.83046567440032959 0.32085427641868591 0.25615972280502319
0.081106103956699371 0.51385247707366943 0.13188788294792175
0.23734484612941742 0.54262453317642212 0.17344394326210022
0.51523226499557495 0.54973709583282471 0.18072016537189484
0.73336511850357056 0.56375080347061157 0.20694968104362488
0.82084572315216064 0.60119378566741943 0.24314570426940918
0.13881503045558929 0.76858794689178467 0.21632899343967438
0.28559264540672302 0.7848321795463562 0.236572265625
0.54158544540405273 0.77052956819534302 0.21683803200721741
0.73472422361373901 0.76190954446792603 0.20562261343002319
0.79884219169616699 0.77660936117172241 0.21785533428192139
0.23578806221485138 0.90861219167709351 0.3358549177646637
0.35740393400192261 0.90514123439788818 0.32806271314620972
0.58551836013793945 0.8672870397567749 0.27451610565185547
0.75613564252853394 0.83464640378952026 0.22737681865692139
0.80355632305145264 0.83068519830703735 0.22143019735813141
0.10893542319536209 0.11578609794378281 0.53157347440719604
0.2241310328245163 0.10647212713956833 0.51237243413925171
0.45981007814407349 0.068999364972114563 0.46206629276275635
0.65477824211120605 0.061335660517215729 0.45669931173324585
0.74440920352935791 0.095348656177520752 0.50482010841369629
0.092901818454265594 0.23660330474376678 0.51223349571228027
0.2335110604763031 0.25827553868293762 0.53051865100860596
0.50840109586715698 0.25283822417259216 0.52865242958068848
0.72951489686965942 0.27000677585601807 0.55524277687072754
0.82634878158569336 0.31623822450637817 0.61072003841400146
0.079131431877613068 0.5110095739364624 0.49389541149139404
0.23023736476898193 0.54063773155212402 0.5297895073890686
0.50794988870620728 0.5399777889251709 0.53314197063446045
0.72512894868850708 0.55543500185012817 0.55367046594619751
0.81173872947692871 0.59086894989013672 0.5920073390007019
0.13280931115150452 0.76199060678482056 0.57055336236953735
0.27000179886817932 0.77745175361633301 0.58466058969497681
0.52729910612106323 0.75632727146148682 0.55781686305999756
0.71839058399200439 0.74637788534164429 0.54214680194854736
0.7819598913192749 0.75778794288635254 0.55345761775970459
0.21980348229408264 0.89564186334609985 0.67875617742538452
0.33448305726051331 0.88754189014434814 0.6651616096496582
0.56513172388076782 0.84896570444107056 0.60223603248596191
0.7311130166053772 0.81564295291900635 0.55606591701507568
0.77938532829284668 0.80667906999588013 0.5510748028755188
0.093847043812274933 0.09824688732624054 0.76957005262374878
0.21131865680217743 0.088047169148921967 0.76029026508331299
0.45162978768348694 0.056934904307126999 0.71793532371520996
0.64879065752029419 0.058403607457876205 0.70989012718200684
0.74297612905502319 0.094273820519447327 0.76050889492034912
0.087101928889751434 0.23726947605609894 0.76391696929931641
0.23466269671916962 0.25234255194664001 0.79029595851898193
0.51051497459411621 0.25117814540863037 0.79303556680679321
0.72867929935455322 0.27581849694252014 0.81699979305267334
0.82740336656570435 0.32083716988563538 0.87663060426712036
0.081393614411354065 0.51813793182373047 0.75613260269165039
0.23505301773548126 0.54256874322891235 0.79351127147674561
0.5111878514289856 0.5419154167175293 0.79802179336547852
0.72567540407180786 0.55970466136932373 0.81603634357452393
0.81130790710449219 0.59269601106643677 0.85230857133865356
0.1290762722492218 0.76308542490005493 0.82677352428436279
0.26452219486236572 0.77511119842529297 0.84150844812393188
0.52066248655319214 0.75239890813827515 0.81134533882141113
0.71061289310455322 0.74242115020751953 0.79341697692871094
0.77336680889129639 0.75176149606704712 0.80150091648101807
0.20830456912517548 0.8886483907699585 0.92104876041412354
0.32078087329864502 0.87773770093917847 0.90823841094970703
0.5502592921257019 0.83637571334838867 0.8425215482711792
0.71578460931777954 0.80315494537353516 0.79687601327896118
0.76366019248962402 0.79420554637908936 0.7897530198097229
0.096712872385978699 0.098592020571231842 0.83699566125869751
0.21001428365707397 0.090329520404338837 0.82480365037918091
0.45773950219154358 0.064443252980709076 0.8015592098236084
0.66623300313949585 0.068524591624736786 0.79614502191543579
0.76145869493484497 0.10516363382339478 0.85106146335601807
0.097768321633338928 0.25071665644645691 0.84076708555221558
0.24653881788253784 0.27064350247383118 0.86447173357009888
0.52296119928359985 0.2681901752948761 0.87824875116348267
0.74481678009033203 0.29061147570610046 0.90551382303237915
0.8403124213218689 0.3371870219707489 0.96234810352325439
0.093301109969615936 0.53739923238754272 0.84079879522323608
0.24736158549785614 0.5599825382232666 0.87752270698547363
0.52310812473297119 0.55666983127593994 0.8829343318939209
0.73423653841018677 0.57123363018035889 0.89958477020263672
0.81603860855102539 0.60114777088165283 0.93103158473968506
0.13497206568717957 0.76832342147827148 0.90557330846786499
0.27039071917533875 0.77932566404342651 0.91776448488235474
0.52385944128036499 0.7557525634765625 0.88426750898361206
0.71061480045318604 0.74432069063186646 0.86510562896728516
0.77271997928619385 0.75117689371109009 0.87348651885986328
0.20998381078243256 0.8843153715133667 0.99421101808547974
0.31917834281921387 0.87461423873901367 0.97619616985321045
0.54696232080459595 0.82812666893005371 0.91002672910690308
0.71129137277603149 0.795418381690979 0.86398857831954956
0.75802057981491089 0.78996604681015015 0.85631150007247925
