ISP_LUT/Levine.cube
# 3D Color LUT 'Q-DDL_Pack_16 / Levine' (http://quickddl.net/free_color_luts)
TITLE "Levine"
LUT_3D_SIZE 17
DOMAIN_MIN 0.0 0.0 0.0
DOMAIN_MAX 1.0 1.0 1.0
0.12825007736682892 0.13557186722755432 0.028525823727250099
0.14325118064880371 0.13778150081634521 0.030667243525385857
0.1669122725725174 0.13915438950061798 0.031945407390594482
0.2004801481962204 0.13763785362243652 0.030084444209933281
0.24524247646331787 0.13227681815624237 0.02428283728659153
0.30005016922950745 0.12366857379674911 0.016064809635281563
0.36170834302902222 0.11301608383655548 0.0083781806752085686
0.42610597610473633 0.10159628093242645 0.0034928480163216591
0.4890686571598053 0.090785078704357147 0.0011416904162615538
0.54701840877532959 0.081985682249069214 0.00020688552467618138
0.59742695093154907 0.076155379414558411 0
0.6391298770904541 0.073450170457363129 0.00031029744422994554
0.67262536287307739 0.073646977543830872 0.0010906262323260307
0.69963705539703369 0.07657044380903244 0.0025535752065479755
0.72194790840148926 0.081958137452602386 0.0049240821972489357
0.74031805992126465 0.089025534689426422 0.0084496568888425827
0.75334709882736206 0.09554021805524826 0.012242024764418602
0.12752009928226471 0.14945843815803528 0.027401851490139961
0.14235277473926544 0.15135788917541504 0.029469175264239311
0.16605579853057861 0.15275193750858307 0.030794672667980194
0.20011913776397705 0.15212711691856384 0.029358776286244392
0.24589622020721436 0.1486610621213913 0.024429310113191605
0.30220514535903931 0.14231635630130768 0.017197182402014732
0.36575639247894287 0.13367488980293274 0.010095821693539619
0.43229871988296509 0.12382572889328003 0.0052593802101910114
0.49745640158653259 0.11431827396154404 0.0028296366799622774
0.5573955774307251 0.1068955734372139 0.0019612759351730347
0.60945236682891846 0.10275348275899887 0.0020500936079770327
0.65258949995040894 0.10198689252138138 0.0029152790084481239
0.68741405010223389 0.10413326323032379 0.004591082688421011
0.71559780836105347 0.10882466286420822 0.0075478879734873772
0.73888480663299561 0.11578936874866486 0.01258447952568531
0.75801461935043335 0.1242821216583252 0.020134171470999718
0.77150505781173706 0.13188131153583527 0.027774514630436897
0.12429822981357574 0.1715349555015564 0.024745827540755272
0.13919951021671295 0.17337815463542938 0.02669135108590126
0.16331125795841217 0.17518661916255951 0.028105724602937698
0.1982763260602951 0.17592766880989075 0.027311254292726517
0.24542859196662903 0.17486302554607391 0.023659160360693932
0.30351021885871887 0.17130841314792633 0.017981179058551788
0.36916825175285339 0.16520257294178009 0.012104411609470844
0.43807291984558105 0.15742003917694092 0.0078215878456830978
0.50569629669189453 0.14967738091945648 0.0056561403907835484
0.56796461343765259 0.144095778465271 0.0051825609989464283
0.62207400798797607 0.14215731620788574 0.0059790746308863163
0.66711854934692383 0.14387132227420807 0.0078887538984417915
0.70379334688186646 0.1485024094581604 0.011062751524150372
0.73366075754165649 0.15545846521854401 0.016319336369633675
0.75833797454833984 0.16437940299510956 0.025005735456943512
0.77847903966903687 0.1744791716337204 0.037364915013313293
0.79253512620925903 0.18318758904933929 0.049195654690265656
0.1170739158987999 0.20360003411769867 0.020073056221008301
0.13258662819862366 0.20599153637886047 0.021994372829794884
0.15780375897884369 0.20888902246952057 0.023670641705393791
0.19423049688339233 0.21130813658237457 0.023712880909442902
0.2430029958486557 0.21240872144699097 0.021527661010622978
0.30279421806335449 0.21123588085174561 0.017647126689553261
0.3702608048915863 0.20745530724525452 0.013397353701293468
0.44108709692955017 0.20181626081466675 0.010199361480772495
0.51072710752487183 0.1960730105638504 0.0087651144713163376
0.57504183053970337 0.19249306619167328 0.009066055528819561
0.63118517398834229 0.19269658625125885 0.010941289365291595
0.67829138040542603 0.19668634235858917 0.014350683428347111
0.71701359748840332 0.20362603664398193 0.019621193408966064
0.74873185157775879 0.21277526021003723 0.027733813971281052
0.77485108375549316 0.22358432412147522 0.0399477519094944
0.79588693380355835 0.23506958782672882 0.055807139724493027
0.81033945083618164 0.24458388984203339 0.070176124572753906
0.10571557283401489 0.24745407700538635 0.013875370845198631
0.12240294367074966 0.25092694163322449 0.015904257073998451
0.1494181752204895 0.255403071641922 0.018014015629887581
0.18786154687404633 0.25954213738441467 0.01898784376680851
0.23852923512458801 0.26228064298629761 0.018228327855467796
0.29999250173568726 0.26277017593383789 0.016029872000217438
0.36892947554588318 0.2608160674571991 0.01336855161935091
0.44109588861465454 0.25717976689338684 0.011387132108211517
0.51206755638122559 0.25350528955459595 0.010846116580069065
0.57787168025970459 0.25186172127723694 0.012040239758789539
0.6357724666595459 0.25375181436538696 0.015123079530894756
0.68482059240341187 0.25932005047798157 0.020219864323735237
0.72545903921127319 0.26789098978042603 0.027698289602994919
0.75881761312484741 0.27869877219200134 0.038357824087142944
0.78607177734375 0.29097998142242432 0.052905146032571793
0.80763912200927734 0.30348038673400879 0.070198938250541687
0.82219773530960083 0.31347879767417908 0.085114017128944397
0.092191219329833984 0.30251482129096985 0.0077787637710571289
0.1102597713470459 0.30735072493553162 0.0098285162821412086
0.1393396407365799 0.3135363757610321 0.012306200340390205
0.180061936378479 0.3192022442817688 0.014097385108470917
0.23283234238624573 0.3230879008769989 0.014514535665512085
0.29599276185035706 0.32463538646697998 0.013646204955875874
0.36616319417953491 0.32399711012840271 0.012230483815073967
0.43919739127159119 0.32202416658401489 0.011216893792152405
0.51089823246002197 0.3201603889465332 0.011372081004083157
0.57758969068527222 0.32009580731391907 0.013252097181975842
0.63672018051147461 0.3230971097946167 0.017326096072793007
0.68722552061080933 0.32948571443557739 0.023847799748182297
0.72927618026733398 0.33886793255805969 0.033016592264175415
0.76373696327209473 0.35055112838745117 0.045223910361528397
0.79160147905349731 0.36361181735992432 0.060595106333494186
0.81328237056732178 0.37655666470527649 0.077673189342021942
0.82770538330078125 0.38662248849868774 0.091887906193733215
0.079688586294651031 0.36632725596427917 0.0034483438357710838
0.099099904298782349 0.37252157926559448 0.0052607725374400616
0.13016219437122345 0.38023972511291504 0.007845425046980381
0.17307476699352264 0.38708904385566711 0.010208765976130962
0.22786961495876312 0.39170369505882263 0.011482627131044865
0.29256328940391541 0.39386582374572754 0.011526806280016899
0.36365965008735657 0.39409032464027405 0.010875456035137177
0.43713229894638062 0.39330899715423584 0.010349961929023266
0.5090489387512207 0.39274090528488159 0.010792707093060017
0.57603532075881958 0.39369949698448181 0.012976868078112602
0.63571137189865112 0.39723086357116699 0.017581768333911896
0.68692922592163086 0.40379032492637634 0.024933157488703728
0.72962909936904907 0.41324222087860107 0.034942537546157837
0.76445895433425903 0.42499911785125732 0.04755140095949173
0.79230612516403198 0.43804246187210083 0.062482871115207672
0.8136637806892395 0.45072096586227417 0.078305192291736603
0.82772767543792725 0.46033850312232971 0.091197498142719269
0.071578338742256165 0.43576809763908386 0.0013510404387488961
0.092290088534355164 0.44299894571304321 0.0029477057978510857
0.12516726553440094 0.45174899697303772 0.0055906996130943298
0.16992303729057312 0.4592774510383606 0.0084264986217021942
0.22622302174568176 0.46424275636672974 0.010345499031245708
0.29184657335281372 0.46670237183570862 0.010920298285782337
0.3632759153842926 0.46741056442260742 0.010509268380701542
0.43664255738258362 0.46732181310653687 0.0099412091076374054
0.50825029611587524 0.46745377779006958 0.010222696699202061
0.57494854927062988 0.46882814168930054 0.012309092096984386
0.63446873426437378 0.47233632206916809 0.016954472288489342
0.68560415506362915 0.4785291850566864 0.024452047422528267
0.72813284397125244 0.48746263980865479 0.034430786967277527
0.76255983114242554 0.49864399433135986 0.046481288969516754
0.78974413871765137 0.5110054612159729 0.06013183668255806
0.81032532453536987 0.52282285690307617 0.074166618287563324
0.82378417253494263 0.53157657384872437 0.085502222180366516
0.070528507232666016 0.50794297456741333 0.0012028823839500546
0.092453658580780029 0.51560491323471069 0.0030093365348875523
0.12688387930393219 0.52459639310836792 0.0061849234625697136
0.17292273044586182 0.53213244676589966 0.0097971502691507339
0.22984741628170013 0.53704297542572021 0.012392769567668438
0.29544508457183838 0.5395042896270752 0.013249145820736885
0.36638408899307251 0.54032224416732788 0.01265301089733839
0.43899869918823242 0.5404127836227417 0.011580015532672405
0.509765625 0.54064500331878662 0.011275673285126686
0.57565182447433472 0.54185467958450317 0.012875325046479702
0.63442027568817139 0.54484975337982178 0.017114544287323952
0.68479806184768677 0.55025631189346313 0.024111811071634293
0.72644686698913574 0.55826359987258911 0.033290054649114609
0.75979268550872803 0.56845349073410034 0.044070180505514145
0.78573340177536011 0.57974541187286377 0.055966772139072418
0.80510711669921875 0.59040403366088867 0.068049691617488861
0.81770473718643188 0.598125159740448 0.077846504747867584
0.077637225389480591 0.58027327060699463 0.0033187419176101685
0.10044445842504501 0.58769994974136353 0.0060466649010777473
0.1358598917722702 0.59612935781478882 0.010625572875142097
0.1824120432138443 0.60298877954483032 0.015600503422319889
0.23906202614307404 0.60734200477600098 0.019085200503468513
0.30375349521636963 0.60937285423278809 0.020159956067800522
0.37346631288528442 0.60981035232543945 0.019130898639559746
0.4447687566280365 0.60949790477752686 0.017195332795381546
0.51426595449447632 0.60922145843505859 0.015900373458862305
0.57896250486373901 0.609732985496521 0.01657397672533989
0.63657927513122559 0.6118122935295105 0.019880838692188263
0.68574351072311401 0.61613380908966064 0.025697315111756325
0.72601372003555298 0.6229662299156189 0.033367272466421127
0.75778108835220337 0.63194715976715088 0.042324714362621307
0.78203099966049194 0.64201247692108154 0.052194442600011826
0.79983818531036377 0.6514546275138855 0.062319546937942505
0.81133550405502319 0.658164381980896 0.070672959089279175
0.092215508222579956 0.64999353885650635 0.0093877743929624557
0.11541126668453217 0.6567453145980835 0.013837634585797787
0.15105786919593811 0.66410213708877563 0.02056979201734066
0.197307288646698 0.66980600357055664 0.027241848409175873
0.25296977162361145 0.67312771081924438 0.031625282019376755
0.31617733836174011 0.67421764135360718 0.032786358147859573
0.38421496748924255 0.67370313405990601 0.031172161921858788
0.45387813448905945 0.6723712682723999 0.028194013983011246
0.52187836170196533 0.67099606990814209 0.025606624782085419
0.58521574735641479 0.67033445835113525 0.024843290448188782
0.6415131688117981 0.67117071151733398 0.026516584679484367
0.68925195932388306 0.67418980598449707 0.030403042212128639
0.72788196802139282 0.67968475818634033 0.035899307578802109
0.75779271125793457 0.68732470273971558 0.042563587427139282
0.78009819984436035 0.69608098268508911 0.050194062292575836
0.79612529277801514 0.70430809259414673 0.058364342898130417
0.80636322498321533 0.7100716233253479 0.065346583724021912
0.1127239316701889 0.71433299779891968 0.022570472210645676
0.13576187193393707 0.72026854753494263 0.028974410146474838
0.17087356746196747 0.72642475366592407 0.037731442600488663
0.21608999371528625 0.73082149028778076 0.045707810670137405
0.27025052905082703 0.73284971714019775 0.050483271479606628
0.33166727423667908 0.73260802030563354 0.051218364387750626
0.39785861968994141 0.73066091537475586 0.048604145646095276
0.46580129861831665 0.72779875993728638 0.04427872970700264
0.53229141235351562 0.72484868764877319 0.040095899254083633
0.59430080652236938 0.72262817621231079 0.037471257150173187
0.64931315183639526 0.72194510698318481 0.036968439817428589
0.69561910629272461 0.72346973419189453 0.038368958979845047
0.73254686594009399 0.72747641801834106 0.041182637214660645
0.76052719354629517 0.73363262414932251 0.045153316110372543
0.78085190057754517 0.74094510078430176 0.050295464694499969
0.79510033130645752 0.74786543846130371 0.056392218917608261
0.80407851934432983 0.7526627779006958 0.061951503157615662
0.13756309449672699 0.77108430862426758 0.04571807011961937
0.15985956788063049 0.77628600597381592 0.053152319043874741
0.19369103014469147 0.78140342235565186 0.062745638191699982
0.23724430799484253 0.78463166952133179 0.070906691253185272
0.28954312205314636 0.78537547588348389 0.075067535042762756
0.34904679656028748 0.78365707397460938 0.074486583471298218
0.41340592503547668 0.78003501892089844 0.070165649056434631
0.47970873117446899 0.77536875009536743 0.063993260264396667
0.54480886459350586 0.77057677507400513 0.057863812893629074
0.60563886165618896 0.76655608415603638 0.053100824356079102
0.6595190167427063 0.76414823532104492 0.050178036093711853
0.70450669527053833 0.76401227712631226 0.048849895596504211
0.73979365825653076 0.76638913154602051 0.04870055615901947
0.76590681076049805 0.77091342210769653 0.049679040908813477
0.78438049554824829 0.77661025524139404 0.05205000564455986
0.79703623056411743 0.7820584774017334 0.055814992636442184
0.80490893125534058 0.78578996658325195 0.059750963002443314
0.16513745486736298 0.8193090558052063 0.077827081084251404
0.18612118065357208 0.82385349273681641 0.085124559700489044
0.21798278391361237 0.8281015157699585 0.094136513769626617
0.2593514621257782 0.83036857843399048 0.10114617645740509
0.30956625938415527 0.83000379800796509 0.1035161092877388
0.36716172099113464 0.8269152045249939 0.10064053535461426
0.42978948354721069 0.82167738676071167 0.093892037868499756
0.49456730484962463 0.81523901224136353 0.085398651659488678
0.55838721990585327 0.80860728025436401 0.077038951218128204
0.61815714836120605 0.80274772644042969 0.070006310939788818
0.67104476690292358 0.79854416847229004 0.064650528132915497
0.71485108137130737 0.79666966199874878 0.060621067881584167
0.74861204624176025 0.79734671115875244 0.057484645396471024
0.77300167083740234 0.80016601085662842 0.055386211723089218
0.78983896970748901 0.80416536331176758 0.054864116013050079
0.80115026235580444 0.80807638168334961 0.056158162653446198
0.80810678005218506 0.81072407960891724 0.058360960334539413
0.19364219903945923 0.85928791761398315 0.11470463126897812
0.21287678182125092 0.86304956674575806 0.12110047787427902
0.24225154519081116 0.86634695529937744 0.12848539650440216
0.28109055757522583 0.86768674850463867 0.13323432207107544
0.32915663719177246 0.86639547348022461 0.13284613192081451
0.38494417071342468 0.86223983764648438 0.12702198326587677
0.44594621658325195 0.85574114322662354 0.11750093847513199
0.5092308521270752 0.84787005186080933 0.10652107000350952
0.57172822952270508 0.83967787027359009 0.095846898853778839
0.63036906719207764 0.83217883110046387 0.08652939647436142
0.68223422765731812 0.82630395889282227 0.078826233744621277
0.72491836547851562 0.82276511192321777 0.07228841632604599
0.7573171854019165 0.82179427146911621 0.066419683396816254
0.78025513887405396 0.82295495271682739 0.061515096575021744
0.79579192399978638 0.82531517744064331 0.058341130614280701
0.80607569217681885 0.82777541875839233 0.057349108159542084
0.81233590841293335 0.82943397760391235 0.057942487299442291
0.2205389142036438 0.89119869470596313 0.15084639191627502
0.23791411519050598 0.89399272203445435 0.15594498813152313
0.264688640832901 0.89613306522369385 0.16115002334117889
0.30099081993103027 0.89644056558609009 0.16303187608718872
0.34705451130867004 0.89435505867004395 0.15946307778358459
0.40121084451675415 0.88952755928039551 0.1506803035736084
0.46066489815711975 0.88229119777679443 0.13864134252071381
0.52239310741424561 0.87351405620574951 0.12545190751552582
0.58337926864624023 0.86423647403717041 0.11265239864587784
0.64062881469726562 0.85550522804260254 0.10116235166788101
0.6912418007850647 0.8482939600944519 0.091238655149936676
0.73276829719543457 0.84335154294967651 0.08248322457075119
0.7640727162361145 0.84092754125595093 0.074424348771572113
0.78603965044021606 0.84059613943099976 0.067390292882919312
0.80079466104507446 0.84149569272994995 0.062201932072639465
0.81048756837844849 0.84269583225250244 0.059429056942462921
0.8163444995880127 0.84351736307144165 0.058740671724081039
0.24103038012981415 0.91312861442565918 0.17856653034687042
0.25699400901794434 0.9150499701499939 0.1824532151222229
0.28178316354751587 0.91613805294036865 0.18571537733078003
0.31615164875984192 0.9155343770980835 0.18512804806232452
0.36070716381072998 0.91285508871078491 0.17895479500293732
0.41358482837677002 0.90767776966094971 0.16795577108860016
0.4717288613319397 0.900124192237854 0.15416371822357178
0.53205025196075439 0.89091718196868896 0.13943555951118469
0.59159201383590698 0.88105571269989014 0.12507081031799316
0.6474463939666748 0.87159895896911621 0.11188773065805435
0.69679772853851318 0.8635445237159729 0.10020247846841812
0.73729783296585083 0.85765331983566284 0.089793644845485687
0.76789480447769165 0.85417991876602173 0.080322764813899994
0.78942537307739258 0.85273897647857666 0.072045646607875824
0.80391389131546021 0.8525577187538147 0.065678581595420837
0.81342899799346924 0.85284113883972168 0.061815377324819565
0.81915998458862305 0.85306239128112793 0.060309752821922302
0.1297898143529892 0.13800022006034851 0.047179717570543289
0.14437364041805267 0.13967122137546539 0.048896864056587219
0.16750282049179077 0.14035232365131378 0.049659367650747299
0.20052565634250641 0.13833928108215332 0.047246228903532028
0.24483862519264221 0.13286624848842621 0.040736407041549683
0.29943737387657166 0.12436269223690033 0.031187890097498894
0.36110693216323853 0.11384061723947525 0.021092399954795837
0.42556944489479065 0.10245313495397568 0.013119332492351532
0.4884827733039856 0.091474130749702454 0.0082736015319824219
0.54627454280853271 0.082293860614299774 0.0058176582679152489
0.5966230034828186 0.076020367443561554 0.0048655462451279163
0.63860028982162476 0.073069453239440918 0.0051887384615838528
0.67269092798233032 0.073386088013648987 0.0068877930752933025
0.70029741525650024 0.076765939593315125 0.0099326474592089653
0.72290462255477905 0.082802779972553253 0.014013820327818394
0.74121731519699097 0.090511597692966461 0.018949702382087708
0.75404930114746094 0.097476810216903687 0.023769490420818329
0.1286291629076004 0.15173505246639252 0.045325372368097305
0.14325729012489319 0.15335260331630707 0.047144565731287003
0.16668844223022461 0.15437987446784973 0.048227891325950623
0.20041525363922119 0.15345241129398346 0.04655042290687561
0.24584859609603882 0.14982512593269348 0.041230902075767517
0.30195823311805725 0.14344261586666107 0.0330977663397789
0.36548569798469543 0.13483676314353943 0.024239344522356987
0.43207088112831116 0.1250162273645401 0.016986478120088577
0.49722814559936523 0.11541222035884857 0.012441981583833694
0.55716085433959961 0.10768325626850128 0.010260874405503273
0.60937243700027466 0.10310100764036179 0.0098218685016036034
0.65294581651687622 0.10202727466821671 0.011005806736648083
0.68841040134429932 0.10422305017709732 0.013980415649712086
0.71716606616973877 0.10932654142379761 0.018877435475587845
0.74071210622787476 0.11689373850822449 0.025795692577958107
0.759743332862854 0.12594114243984222 0.034599725157022476
0.77299875020980835 0.13390260934829712 0.042933192104101181
0.12491641193628311 0.17353405058383942 0.041581988334655762
0.13986749947071075 0.17537614703178406 0.043557628989219666
0.164017453789711 0.17717918753623962 0.045134343206882477
0.19889524579048157 0.17785198986530304 0.044542849063873291
0.24583074450492859 0.17661739885807037 0.040951509028673172
0.30373170971870422 0.17291316390037537 0.03492896631360054
0.36933469772338867 0.16677205264568329 0.028096290305256844
0.43826720118522644 0.1590421199798584 0.022342363372445107
0.50595492124557495 0.15130913257598877 0.018784284591674805
0.56839698553085327 0.14552262425422668 0.01748533733189106
0.62291258573532104 0.14314380288124084 0.018151683732867241
0.66857314109802246 0.14446288347244263 0.020708639174699783
0.70591330528259277 0.14903135597705841 0.02533913217484951
0.73628169298171997 0.15630051493644714 0.032487843185663223
0.76113486289978027 0.16572622954845428 0.042802967131137848
0.78111463785171509 0.1762690544128418 0.055978965014219284
0.79489386081695557 0.18524803221225739 0.068069018423557281
0.11749596893787384 0.20513510704040527 0.035464182496070862
0.13320781290531158 0.20770737528800964 0.03775903582572937
0.15864615142345428 0.21083123981952667 0.040083035826683044
0.19514785706996918 0.21336983144283295 0.040848366916179657
0.24381347000598907 0.21440088748931885 0.039230700582265854
0.30346938967704773 0.21311910450458527 0.035558592528104782
0.37089088559150696 0.20933331549167633 0.03105626069009304
0.4417705237865448 0.20380131900310516 0.027236759662628174
0.5115581750869751 0.19815488159656525 0.025178395211696625
0.57619595527648926 0.19445326924324036 0.025233149528503418
0.6329115629196167 0.19423939287662506 0.027382619678974152
0.68071871995925903 0.19778694212436676 0.031618312001228333
0.72006207704544067 0.20456242561340332 0.038169976323843002
0.75215774774551392 0.21389059722423553 0.047673847526311874
0.77833294868469238 0.22506633400917053 0.060888532549142838
0.79913979768753052 0.23689109086990356 0.077052317559719086
0.81328761577606201 0.24661868810653687 0.091360770165920258
0.10640217363834381 0.24847707152366638 0.027460718527436256
0.12328732013702393 0.2521931529045105 0.030233336612582207
0.15053464472293854 0.25696933269500732 0.033514481037855148
0.18908879160881042 0.26133465766906738 0.035763103514909744
0.23970234394073486 0.26416844129562378 0.036079540848731995
0.30107313394546509 0.26471182703971863 0.034571539610624313
0.37000396847724915 0.26286453008651733 0.032171133905649185
0.44228792190551758 0.25939282774925232 0.030146898701786995
0.51350826025009155 0.25584235787391663 0.029555758461356163
0.57973408699035645 0.25411635637283325 0.030971881002187729
0.63823944330215454 0.25566056370735168 0.034611336886882782
0.68793332576751709 0.26083093881607056 0.040539581328630447
0.72906839847564697 0.26920121908187866 0.04895530641078949
0.76265430450439453 0.28007674217224121 0.060379967093467712
0.78984099626541138 0.29259207844734192 0.075244858860969543
0.81111502647399902 0.30533993244171143 0.092362277209758759
0.82534730434417725 0.31550979614257812 0.10697222501039505
0.093365155160427094 0.30336397886276245 0.019172107800841331
0.11159048229455948 0.30837571620941162 0.022377585992217064
0.14086081087589264 0.31478387117385864 0.026592401787638664
0.1816667914390564 0.32067900896072388 0.030222360044717789
0.23436412215232849 0.32479271292686462 0.032187417149543762
0.29742506146430969 0.32657411694526672 0.032376322895288467
0.36760985851287842 0.32617965340614319 0.031517546623945236
0.44081965088844299 0.3244335949420929 0.030753349885344505
0.51284599304199219 0.32270324230194092 0.031182358041405678
0.57999598979949951 0.32257869839668274 0.033590581268072128
0.63967150449752808 0.32531410455703735 0.038394134491682053
0.69068604707717896 0.33138278126716614 0.045677382498979568
0.73307102918624878 0.34057044982910156 0.055458866059780121
0.76761245727539062 0.3522515594959259 0.067928701639175415
0.79530364274978638 0.3654487133026123 0.083093985915184021
0.81663715839385986 0.37856757640838623 0.099618755280971527
0.83071500062942505 0.38876816630363464 0.11333194375038147
0.08130452036857605 0.36751747131347656 0.012448547407984734
