ISP_LUT/Nelson.cube
# 3D Color LUT 'Q-DDL_Pack_16 / Nelson' (http://quickddl.net/free_color_luts)
TITLE "Nelson"
LUT_3D_SIZE 5
DOMAIN_MIN 0.0 0.0 0.0
DOMAIN_MAX 1.0 1.0 1.0
0.30935755372047424 0.30935755372047424 0.30935755372047424
0.32104191184043884 0.32104191184043884 0.32104191184043884
0.3696536123752594 0.3696536123752594 0.3696536123752594
0.47160333395004272 0.47160333395004272 0.47160333395004272
0.63384860754013062 0.63384860754013062 0.63384860754013062
0.32787984609603882 0.32787984609603882 0.32787984609603882
0.34924119710922241 0.34924119710922241 0.34924119710922241
0.42238646745681763 0.42238646745681763 0.42238646745681763
0.51721453666687012 0.51721453666687012 0.51721453666687012
0.67955780029296875 0.67955780029296875 0.67955780029296875
0.37986031174659729 0.37986031174659729 0.37986031174659729
0.38698989152908325 0.38698989152908325 0.38698989152908325
0.49535861611366272 0.49535861611366272 0.49535861611366272
0.66708523035049438 0.66708523035049438 0.66708523035049438
0.78417223691940308 0.78417223691940308 0.78417223691940308
0.51281142234802246 0.51281142234802246 0.51281142234802246
0.48785087466239929 0.48785087466239929 0.48785087466239929
0.55354511737823486 0.55354511737823486 0.55354511737823486
0.74982792139053345 0.74982792139053345 0.74982792139053345
0.86119198799133301 0.86119198799133301 0.86119198799133301
0.75754791498184204 0.75754791498184204 0.75754791498184204
0.7366410493850708 0.7366410493850708 0.7366410493850708
0.7508510947227478 0.7508510947227478 0.7508510947227478
0.83781909942626953 0.83781909942626953 0.83781909942626953
0.90803146362304688 0.90803146362304688 0.90803146362304688
0.31359550356864929 0.31359550356864929 0.31359550356864929
0.32965525984764099 0.32965525984764099 0.32965525984764099
0.38690060377120972 0.38690060377120972 0.38690060377120972
0.49807196855545044 0.49807196855545044 0.49807196855545044
0.65138363838195801 0.65138363838195801 0.65138363838195801
0.35095757246017456 0.35095757246017456 0.35095757246017456
0.36159136891365051 0.36159136891365051 0.36159136891365051
0.4314139187335968 0.4314139187335968 0.4314139187335968
0.54410117864608765 0.54410117864608765 0.54410117864608765
0.68619269132614136 0.68619269132614136 0.68619269132614136
0.44807210564613342 0.44807210564613342 0.44807210564613342
0.43276375532150269 0.43276375532150269 0.43276375532150269
0.51124840974807739 0.51124840974807739 0.51124840974807739
0.67429041862487793 0.67429041862487793 0.67429041862487793
0.77976638078689575 0.77976638078689575 0.77976638078689575
0.60358601808547974 0.60358601808547974 0.60358601808547974
0.56719988584518433 0.56719988584518433 0.56719988584518433
0.59486019611358643 0.59486019611358643 0.59486019611358643
0.76673561334609985 0.76673561334609985 0.76673561334609985
0.86872768402099609 0.86872768402099609 0.86872768402099609
0.80235075950622559 0.80235075950622559 0.80235075950622559
0.78093332052230835 0.78093332052230835 0.78093332052230835
0.77686798572540283 0.77686798572540283 0.77686798572540283
0.85799133777618408 0.85799133777618408 0.85799133777618408
0.92385739088058472 0.92385739088058472 0.92385739088058472
0.38843598961830139 0.38843598961830139 0.38843598961830139
0.41928210854530334 0.41928210854530334 0.41928210854530334
0.48166584968566895 0.48166584968566895 0.48166584968566895
0.60290449857711792 0.60290449857711792 0.60290449857711792
0.74837595224380493 0.74837595224380493 0.74837595224380493
0.42985785007476807 0.42985785007476807 0.42985785007476807
0.44632479548454285 0.44632479548454285 0.44632479548454285
0.51767045259475708 0.51767045259475708 0.51767045259475708
0.63261914253234863 0.63261914253234863 0.63261914253234863
0.75486898422241211 0.75486898422241211 0.75486898422241211
0.53230440616607666 0.53230440616607666 0.53230440616607666
0.54116499423980713 0.54116499423980713 0.54116499423980713
0.60253322124481201 0.60253322124481201 0.60253322124481201
0.70574259757995605 0.70574259757995605 0.70574259757995605
0.79672062397003174 0.79672062397003174 0.79672062397003174
0.7175828218460083 0.7175828218460083 0.7175828218460083
0.70906651020050049 0.70906651020050049 0.70906651020050049
0.69980770349502563 0.69980770349502563 0.69980770349502563
0.79304730892181396 0.79304730892181396 0.79304730892181396
0.87555593252182007 0.87555593252182007 0.87555593252182007
0.86405378580093384 0.86405378580093384 0.86405378580093384
0.85397225618362427 0.85397225618362427 0.85397225618362427
0.8297087550163269 0.8297087550163269 0.8297087550163269
0.86590343713760376 0.86590343713760376 0.86590343713760376
0.92365044355392456 0.92365044355392456 0.92365044355392456
0.60351616144180298 0.60351616144180298 0.60351616144180298
0.63241875171661377 0.63241875171661377 0.63241875171661377
0.68346512317657471 0.68346512317657471 0.68346512317657471
0.73466324806213379 0.73466324806213379 0.73466324806213379
0.80986464023590088 0.80986464023590088 0.80986464023590088
0.64179283380508423 0.64179283380508423 0.64179283380508423
0.66122573614120483 0.66122573614120483 0.66122573614120483
0.70371395349502563 0.70371395349502563 0.70371395349502563
0.75736445188522339 0.75736445188522339 0.75736445188522339
0.8282921314239502 0.8282921314239502 0.8282921314239502
0.65929615497589111 0.65929615497589111 0.65929615497589111
0.68925392627716064 0.68925392627716064 0.68925392627716064
0.73529946804046631 0.73529946804046631 0.73529946804046631
0.79914450645446777 0.79914450645446777 0.79914450645446777
0.85766094923019409 0.85766094923019409 0.85766094923019409
0.7746543288230896 0.7746543288230896 0.7746543288230896
0.79043251276016235 0.79043251276016235 0.79043251276016235
0.81350052356719971 0.81350052356719971 0.81350052356719971
0.8480074405670166 0.8480074405670166 0.8480074405670166
0.89293181896209717 0.89293181896209717 0.89293181896209717
0.90125244855880737 0.90125244855880737 0.90125244855880737
0.90330779552459717 0.90330779552459717 0.90330779552459717
0.89287102222442627 0.89287102222442627 0.89287102222442627
0.89021575450897217 0.89021575450897217 0.89021575450897217
0.91960251331329346 0.91960251331329346 0.91960251331329346
0.83903956413269043 0.83903956413269043 0.83903956413269043
0.84693092107772827 0.84693092107772827 0.84693092107772827
0.86254072189331055 0.86254072189331055 0.86254072189331055
0.87887769937515259 0.87887769937515259 0.87887769937515259
0.89239734411239624 0.89239734411239624 0.89239734411239624
0.85996371507644653 0.85996371507644653 0.85996371507644653
0.86575943231582642 0.86575943231582642 0.86575943231582642
0.87758183479309082 0.87758183479309082 0.87758183479309082
0.89761275053024292 0.89761275053024292 0.89761275053024292
0.91141420602798462 0.91141420602798462 0.91141420602798462
0.84493941068649292 0.84493941068649292 0.84493941068649292
0.85467463731765747 0.85467463731765747 0.85467463731765747
0.87806344032287598 0.87806344032287598 0.87806344032287598
0.90247207880020142 0.90247207880020142 0.90247207880020142
0.92278844118118286 0.92278844118118286 0.92278844118118286
0.85701251029968262 0.85701251029968262 0.85701251029968262
0.86985057592391968 0.86985057592391968 0.86985057592391968
0.89045345783233643 0.89045345783233643 0.89045345783233643
0.90659421682357788 0.90659421682357788 0.90659421682357788
0.92492777109146118 0.92492777109146118 0.92492777109146118
0.91259723901748657 0.91259723901748657 0.91259723901748657
0.92542481422424316 0.92542481422424316 0.92542481422424316
0.92997837066650391 0.92997837066650391 0.92997837066650391
0.9248802661895752 0.9248802661895752 0.9248802661895752
0.93333339691162109 0.93333339691162109 0.93333339691162109
