ISP_LUT/Nelson.cube
# 3D Color LUT 'Q-DDL_Pack_16 / Nelson' (http://quickddl.net/free_color_luts)
TITLE "Nelson"
LUT_3D_SIZE 17
DOMAIN_MIN 0.0 0.0 0.0
DOMAIN_MAX 1.0 1.0 1.0
0.30935755372047424 0.30935755372047424 0.30935755372047424
0.30975601077079773 0.30975601077079773 0.30975601077079773
0.31138351559638977 0.31138351559638977 0.31138351559638977
0.31501117348670959 0.31501117348670959 0.31501117348670959
0.32104191184043884 0.32104191184043884 0.32104191184043884
0.32957437634468079 0.32957437634468079 0.32957437634468079
0.34053629636764526 0.34053629636764526 0.34053629636764526
0.35385569930076599 0.35385569930076599 0.35385569930076599
0.3696536123752594 0.3696536123752594 0.3696536123752594
0.38840430974960327 0.38840430974960327 0.38840430974960327
0.41096767783164978 0.41096767783164978 0.41096767783164978
0.43840989470481873 0.43840989470481873 0.43840989470481873
0.47160333395004272 0.47160333395004272 0.47160333395004272
0.51067203283309937 0.51067203283309937 0.51067203283309937
0.55430066585540771 0.55430066585540771 0.55430066585540771
0.59848600625991821 0.59848600625991821 0.59848600625991821
0.63384860754013062 0.63384860754013062 0.63384860754013062
0.31164374947547913 0.31164374947547913 0.31164374947547913
0.31221449375152588 0.31221449375152588 0.31221449375152588
0.31419295072555542 0.31419295072555542 0.31419295072555542
0.31835004687309265 0.31835004687309265 0.31835004687309265
0.32505998015403748 0.32505998015403748 0.32505998015403748
0.33435001969337463 0.33435001969337463 0.33435001969337463
0.34601327776908875 0.34601327776908875 0.34601327776908875
0.35979315638542175 0.35979315638542175 0.35979315638542175
0.37564131617546082 0.37564131617546082 0.37564131617546082
0.39397817850112915 0.39397817850112915 0.39397817850112915
0.41579759120941162 0.41579759120941162 0.41579759120941162
0.44246894121170044 0.44246894121170044 0.44246894121170044
0.47520402073860168 0.47520402073860168 0.47520402073860168
0.51429843902587891 0.51429843902587891 0.51429843902587891
0.55833035707473755 0.55833035707473755 0.55833035707473755
0.60302883386611938 0.60302883386611938 0.60302883386611938
0.6387789249420166 0.6387789249420166 0.6387789249420166
0.31536540389060974 0.31536540389060974 0.31536540389060974
0.31615310907363892 0.31615310907363892 0.31615310907363892
0.31863334774971008 0.31863334774971008 0.31863334774971008
0.32361266016960144 0.32361266016960144 0.32361266016960144
0.3314487636089325 0.3314487636089325 0.3314487636089325
0.34208840131759644 0.34208840131759644 0.34208840131759644
0.35513469576835632 0.35513469576835632 0.35513469576835632
0.37002906203269958 0.37002906203269958 0.37002906203269958
0.38640010356903076 0.38640010356903076 0.38640010356903076
0.40449681878089905 0.40449681878089905 0.40449681878089905
0.42543843388557434 0.42543843388557434 0.42543843388557434
0.4510151743888855 0.4510151743888855 0.4510151743888855
0.48297798633575439 0.48297798633575439 0.48297798633575439
0.52193957567214966 0.52193957567214966 0.52193957567214966
0.56634116172790527 0.56634116172790527 0.56634116172790527
0.61153244972229004 0.61153244972229004 0.61153244972229004
0.64762014150619507 0.64762014150619507 0.64762014150619507
0.32070076465606689 0.32070076465606689 0.32070076465606689
0.32162466645240784 0.32162466645240784 0.32162466645240784
0.32457348704338074 0.32457348704338074 0.32457348704338074
0.3304736316204071 0.3304736316204071 0.3304736316204071
0.33972969651222229 0.33972969651222229 0.33972969651222229
0.35225394368171692 0.35225394368171692 0.35225394368171692
0.36745840311050415 0.36745840311050415 0.36745840311050415
0.384389728307724 0.384389728307724 0.384389728307724
0.40216726064682007 0.40216726064682007 0.40216726064682007
0.42067539691925049 0.42067539691925049 0.42067539691925049
0.44104790687561035 0.44104790687561035 0.44104790687561035
0.46549949049949646 0.46549949049949646 0.46549949049949646
0.49646946787834167 0.49646946787834167 0.49646946787834167
0.53506606817245483 0.53506606817245483 0.53506606817245483
0.57959693670272827 0.57959693670272827 0.57959693670272827
0.62498021125793457 0.62498021125793457 0.62498021125793457
0.6611061692237854 0.6611061692237854 0.6611061692237854
0.32787984609603882 0.32787984609603882 0.32787984609603882
0.3287329375743866 0.3287329375743866 0.3287329375743866
0.33190789818763733 0.33190789818763733 0.33190789818763733
0.33855828642845154 0.33855828642845154 0.33855828642845154
0.34924119710922241 0.34924119710922241 0.34924119710922241
0.36394557356834412 0.36394557356834412 0.36394557356834412
0.38197764754295349 0.38197764754295349 0.38197764754295349
0.40197482705116272 0.40197482705116272 0.40197482705116272
0.42238646745681763 0.42238646745681763 0.42238646745681763
0.44251066446304321 0.44251066446304321 0.44251066446304321
0.46329259872436523 0.46329259872436523 0.46329259872436523
0.48716890811920166 0.48716890811920166 0.48716890811920166
0.51721453666687012 0.51721453666687012 0.51721453666687012
0.55515938997268677 0.55515938997268677 0.55515938997268677
0.59924149513244629 0.59924149513244629 0.59924149513244629
0.64406061172485352 0.64406061172485352 0.64406061172485352
0.67955780029296875 0.67955780029296875 0.67955780029296875
0.33707371354103088 0.33707371354103088 0.33707371354103088
0.33754035830497742 0.33754035830497742 0.33754035830497742
0.34049773216247559 0.34049773216247559 0.34049773216247559
0.34741821885108948 0.34741821885108948 0.34741821885108948
0.35911959409713745 0.35911959409713745 0.35911959409713745
0.3758208155632019 0.3758208155632019 0.3758208155632019
0.39691290259361267 0.39691290259361267 0.39691290259361267
0.4207746684551239 0.4207746684551239 0.4207746684551239
0.44519299268722534 0.44519299268722534 0.44519299268722534
0.46875390410423279 0.46875390410423279 0.46875390410423279
0.49194300174713135 0.49194300174713135 0.49194300174713135
0.51686149835586548 0.51686149835586548 0.51686149835586548
0.5466618537902832 0.5466618537902832 0.5466618537902832
0.58355933427810669 0.58355933427810669 0.58355933427810669
0.62600177526473999 0.62600177526473999 0.62600177526473999
0.66878342628479004 0.66878342628479004 0.66878342628479004
0.70246207714080811 0.70246207714080811 0.70246207714080811
0.34848451614379883 0.34848451614379883 0.34848451614379883
0.34818154573440552 0.34818154573440552 0.34818154573440552
0.35032632946968079 0.35032632946968079 0.35032632946968079
0.35674816370010376 0.35674816370010376 0.35674816370010376
0.36858350038528442 0.36858350038528442 0.36858350038528442
0.3864116370677948 0.3864116370677948 0.3864116370677948
0.40995636582374573 0.40995636582374573 0.40995636582374573
0.43770453333854675 0.43770453333854675 0.43770453333854675
0.46715405583381653 0.46715405583381653 0.46715405583381653
0.49633210897445679 0.49633210897445679 0.49633210897445679
0.52491950988769531 0.52491950988769531 0.52491950988769531
0.55369174480438232 0.55369174480438232 0.55369174480438232
0.58470606803894043 0.58470606803894043 0.58470606803894043
0.62016540765762329 0.62016540765762329 0.62016540765762329
0.65935957431793213 0.65935957431793213 0.65935957431793213
0.69821649789810181 0.69821649789810181 0.69821649789810181
0.72863095998764038 0.72863095998764038 0.72863095998764038
0.36250224709510803 0.36250224709510803 0.36250224709510803
0.36105841398239136 0.36105841398239136 0.36105841398239136
0.3617633581161499 0.3617633581161499 0.3617633581161499
0.36676916480064392 0.36676916480064392 0.36676916480064392
0.37750652432441711 0.37750652432441711 0.37750652432441711
0.39496499300003052 0.39496499300003052 0.39496499300003052
0.41940650343894958 0.41940650343894958 0.41940650343894958
0.4498981237411499 0.4498981237411499 0.4498981237411499
0.48438072204589844 0.48438072204589844 0.48438072204589844
0.52081179618835449 0.52081179618835449 0.52081179618835449
0.55767536163330078 0.55767536163330078 0.55767536163330078
0.59323495626449585 0.59323495626449585 0.59323495626449585
0.62721371650695801 0.62721371650695801 0.62721371650695801
0.66140621900558472 0.66140621900558472 0.66140621900558472
0.6964871883392334 0.6964871883392334 0.6964871883392334
0.73027777671813965 0.73027777671813965 0.73027777671813965
0.75654828548431396 0.75654828548431396 0.75654828548431396
0.37986031174659729 0.37986031174659729 0.37986031174659729
0.37702620029449463 0.37702620029449463 0.37702620029449463
0.37580791115760803 0.37580791115760803 0.37580791115760803
0.37858134508132935 0.37858134508132935 0.37858134508132935
0.38698989152908325 0.38698989152908325 0.38698989152908325
0.4024260938167572 0.4024260938167572 0.4024260938167572
0.42581662535667419 0.42581662535667419 0.42581662535667419
0.45714643597602844 0.45714643597602844 0.45714643597602844
0.49535861611366272 0.49535861611366272 0.49535861611366272
0.53883284330368042 0.53883284330368042 0.53883284330368042
0.58488816022872925 0.58488816022872925 0.58488816022872925
0.62873286008834839 0.62873286008834839 0.62873286008834839
0.66708523035049438 0.66708523035049438 0.66708523035049438
0.70110499858856201 0.70110499858856201 0.70110499858856201
0.73277562856674194 0.73277562856674194 0.73277562856674194
0.76187354326248169 0.76187354326248169 0.76187354326248169
0.78417223691940308 0.78417223691940308 0.78417223691940308
0.40174579620361328 0.40174579620361328 0.40174579620361328
0.39749613404273987 0.39749613404273987 0.39749613404273987
0.39417904615402222 0.39417904615402222 0.39417904615402222
0.39424729347229004 0.39424729347229004 0.39424729347229004
0.39946094155311584 0.39946094155311584 0.39946094155311584
0.41160401701927185 0.41160401701927185 0.41160401701927185
0.43233662843704224 0.43233662843704224 0.43233662843704224
0.46263220906257629 0.46263220906257629 0.46263220906257629
0.50241106748580933 0.50241106748580933 0.50241106748580933
0.55052721500396729 0.55052721500396729 0.55052721500396729
0.60368728637695312 0.60368728637695312 0.60368728637695312
0.65492898225784302 0.65492898225784302 0.65492898225784302
0.6983068585395813 0.6983068585395813 0.6983068585395813
0.73382186889648438 0.73382186889648438 0.73382186889648438
0.76396679878234863 0.76396679878234863 0.76396679878234863
0.78995251655578613 0.78995251655578613 0.78995251655578613
0.80931127071380615 0.80931127071380615 0.80931127071380615
0.42982855439186096 0.42982855439186096 0.42982855439186096
0.42440640926361084 0.42440640926361084 0.42440640926361084
0.41919004917144775 0.41919004917144775 0.41919004917144775
0.41653281450271606 0.41653281450271606 0.41653281450271606
0.4182179868221283 0.4182179868221283 0.4182179868221283
0.42641112208366394 0.42641112208366394 0.42641112208366394
0.44354736804962158 0.44354736804962158 0.44354736804962158
0.47153055667877197 0.47153055667877197 0.47153055667877197
0.51089084148406982 0.51089084148406982 0.51089084148406982
0.56050252914428711 0.56050252914428711 0.56050252914428711
0.61673688888549805 0.61673688888549805 0.61673688888549805
0.672160804271698 0.672160804271698 0.672160804271698
0.71966028213500977 0.71966028213500977 0.71966028213500977
0.75764918327331543 0.75764918327331543 0.75764918327331543
0.78807413578033447 0.78807413578033447 0.78807413578033447
0.81276273727416992 0.81276273727416992 0.81276273727416992
0.83048456907272339 0.83048456907272339 0.83048456907272339
0.46616774797439575 0.46616774797439575 0.46616774797439575
0.46001583337783813 0.46001583337783813 0.46001583337783813
0.45339125394821167 0.45339125394821167 0.45339125394821167
0.44838908314704895 0.44838908314704895 0.44838908314704895
0.44672739505767822 0.44672739505767822 0.44672739505767822
0.45088917016983032 0.45088917016983032 0.45088917016983032
0.4640672504901886 0.4640672504901886 0.4640672504901886
0.48904219269752502 0.48904219269752502 0.48904219269752502
0.52662128210067749 0.52662128210067749 0.52662128210067749
0.57519042491912842 0.57519042491912842 0.57519042491912842
0.63067030906677246 0.63067030906677246 0.63067030906677246
0.68620330095291138 0.68620330095291138 0.68620330095291138
0.73509043455123901 0.73509043455123901 0.73509043455123901
0.77470213174819946 0.77470213174819946 0.77470213174819946
0.80593264102935791 0.80593264102935791 0.80593264102935791
0.83041363954544067 0.83041363954544067 0.83041363954544067
0.84746503829956055 0.84746503829956055 0.84746503829956055
0.51281142234802246 0.51281142234802246 0.51281142234802246
0.50636887550354004 0.50636887550354004 0.50636887550354004
0.49890163540840149 0.49890163540840149 0.49890163540840149
0.4922039806842804 0.4922039806842804 0.4922039806842804
0.48785087466239929 0.48785087466239929 0.48785087466239929
0.48844236135482788 0.48844236135482788 0.48844236135482788
0.49769499897956848 0.49769499897956848 0.49769499897956848
0.51909977197647095 0.51909977197647095 0.51909977197647095
0.55354511737823486 0.55354511737823486 0.55354511737823486
0.59880906343460083 0.59880906343460083 0.59880906343460083
0.65051597356796265 0.65051597356796265 0.65051597356796265
0.70272290706634521 0.70272290706634521 0.70272290706634521
0.74982792139053345 0.74982792139053345 0.74982792139053345
0.78898149728775024 0.78898149728775024 0.78898149728775024
0.82019275426864624 0.82019275426864624 0.82019275426864624
0.84449070692062378 0.84449070692062378 0.84449070692062378
0.86119198799133301 0.86119198799133301 0.86119198799133301
0.57055741548538208 0.57055741548538208 0.57055741548538208
0.5640900731086731 0.5640900731086731 0.5640900731086731
0.55626201629638672 0.55626201629638672 0.55626201629638672
0.54870092868804932 0.54870092868804932 0.54870092868804932
0.54279869794845581 0.54279869794845581 0.54279869794845581
0.54093474149703979 0.54093474149703979 0.54093474149703979
0.54677128791809082 0.54677128791809082 0.54677128791809082
0.56401491165161133 0.56401491165161133 0.56401491165161133
0.59362649917602539 0.59362649917602539 0.59362649917602539
0.63323944807052612 0.63323944807052612 0.63323944807052612
0.67868441343307495 0.67868441343307495 0.67868441343307495
0.7249990701675415 0.7249990701675415 0.7249990701675415
0.7676844596862793 0.7676844596862793 0.7676844596862793
0.80411595106124878 0.80411595106124878 0.80411595106124878
0.83378982543945312 0.83378982543945312 0.83378982543945312
0.85713958740234375 0.85713958740234375 0.85713958740234375
0.87323290109634399 0.87323290109634399 0.87323290109634399
0.63680952787399292 0.63680952787399292 0.63680952787399292
0.63056790828704834 0.63056790828704834 0.63056790828704834
0.62288832664489746 0.62288832664489746 0.62288832664489746
0.61542171239852905 0.61542171239852905 0.61542171239852905
0.60939931869506836 0.60939931869506836 0.60939931869506836
0.60664701461791992 0.60664701461791992 0.60664701461791992
0.61001473665237427 0.61001473665237427 0.61001473665237427
0.62266010046005249 0.62266010046005249 0.62266010046005249
0.6457706093788147 0.6457706093788147 0.6457706093788147
0.67766839265823364 0.67766839265823364 0.67766839265823364
0.71496957540512085 0.71496957540512085 0.71496957540512085
0.75366634130477905 0.75366634130477905 0.75366634130477905
0.79013550281524658 0.79013550281524658 0.79013550281524658
0.82207322120666504 0.82207322120666504 0.82207322120666504
0.84873700141906738 0.84873700141906738 0.84873700141906738
0.8701397180557251 0.8701397180557251 0.8701397180557251
0.88509637117385864 0.88509637117385864 0.88509637117385864
0.70410114526748657 0.70410114526748657 0.70410114526748657
0.69837689399719238 0.69837689399719238 0.69837689399719238
0.69134289026260376 0.69134289026260376 0.69134289026260376
0.68474853038787842 0.68474853038787842 0.68474853038787842
0.67968392372131348 0.67968392372131348 0.67968392372131348
0.67723357677459717 0.67723357677459717 0.67723357677459717
0.67897367477416992 0.67897367477416992 0.67897367477416992
0.6871151328086853 0.6871151328086853 0.6871151328086853
0.70321410894393921 0.70321410894393921 0.70321410894393921
0.72673702239990234 0.72673702239990234 0.72673702239990234
0.75537234544754028 0.75537234544754028 0.75537234544754028
0.7859947681427002 0.7859947681427002 0.7859947681427002
0.81564587354660034 0.81564587354660034 0.81564587354660034
0.84231168031692505 0.84231168031692505 0.84231168031692505
0.86516189575195312 0.86516189575195312 0.86516189575195312
0.88395810127258301 0.88395810127258301 0.88395810127258301
0.89736419916152954 0.89736419916152954 0.89736419916152954
0.75754791498184204 0.75754791498184204 0.75754791498184204
0.75240755081176758 0.75240755081176758 0.75240755081176758
0.74615031480789185 0.74615031480789185 0.74615031480789185
0.74057435989379883 0.74057435989379883 0.74057435989379883
0.7366410493850708 0.7366410493850708 0.7366410493850708
0.73480379581451416 0.73480379581451416 0.73480379581451416
0.7355303168296814 0.7355303168296814 0.7355303168296814
0.74024653434753418 0.74024653434753418 0.74024653434753418
0.7508510947227478 0.7508510947227478 0.7508510947227478
0.76775431632995605 0.76775431632995605 0.76775431632995605
0.7895241379737854 0.7895241379737854 0.7895241379737854
0.81370890140533447 0.81370890140533447 0.81370890140533447
0.83781909942626953 0.83781909942626953 0.83781909942626953
0.86006307601928711 0.86006307601928711 0.86006307601928711
0.87959575653076172 0.87959575653076172 0.87959575653076172
0.89605104923248291 0.89605104923248291 0.89605104923248291
0.90803146362304688 0.90803146362304688 0.90803146362304688
0.30824235081672668 0.30824235081672668 0.30824235081672668
0.30862998962402344 0.30862998962402344 0.30862998962402344
0.31030043959617615 0.31030043959617615 0.31030043959617615
0.31401342153549194 0.31401342153549194 0.31401342153549194
0.32015189528465271 0.32015189528465271 0.32015189528465271
0.32880866527557373 0.32880866527557373 0.32880866527557373
0.33991360664367676 0.33991360664367676 0.33991360664367676
0.35339465737342834 0.35339465737342834 0.35339465737342834
0.36936166882514954 0.36936166882514954 0.36936166882514954
0.38825991749763489 0.38825991749763489 0.38825991749763489
0.41090384125709534 0.41090384125709534 0.41090384125709534
0.43831130862236023 0.43831130862236023 0.43831130862236023
0.4713306725025177 0.4713306725025177 0.4713306725025177
0.51012623310089111 0.51012623310089111 0.51012623310089111
0.553497314453125 0.553497314453125 0.553497314453125
0.59754931926727295 0.59754931926727295 0.59754931926727295
0.63290458917617798 0.63290458917617798 0.63290458917617798
0.3109661340713501 0.3109661340713501 0.3109661340713501
0.31144124269485474 0.31144124269485474 0.31144124269485474
0.31334853172302246 0.31334853172302246 0.31334853172302246
0.3174717128276825 0.3174717128276825 0.3174717128276825
0.32417759299278259 0.32417759299278259 0.32417759299278259
0.33349621295928955 0.33349621295928955 0.33349621295928955
0.34523051977157593 0.34523051977157593 0.34523051977157593
0.35913082957267761 0.35913082957267761 0.35913082957267761
0.37514221668243408 0.37514221668243408 0.37514221668243408
0.39365628361701965 0.39365628361701965 0.39365628361701965
0.41561752557754517 0.41561752557754517 0.41561752557754517
0.44233754277229309 0.44233754277229309 0.44233754277229309
0.47498047351837158 0.47498047351837158 0.47498047351837158
0.51384466886520386 0.51384466886520386 0.51384466886520386
0.55760008096694946 0.55760008096694946 0.55760008096694946
0.60210156440734863 0.60210156440734863 0.60210156440734863
0.63778239488601685 0.63778239488601685 0.63778239488601685
0.3154481053352356 0.3154481053352356 0.3154481053352356
0.31603288650512695 0.31603288650512695 0.31603288650512695
0.31828597187995911 0.31828597187995911 0.31828597187995911
0.32305681705474854 0.32305681705474854 0.32305681705474854
0.33071824908256531 0.33071824908256531 0.33071824908256531
0.34123742580413818 0.34123742580413818 0.34123742580413818
0.35424447059631348 0.35424447059631348 0.35424447059631348
0.3692052960395813 0.3692052960395813 0.3692052960395813
0.38575604557991028 0.38575604557991028 0.38575604557991028
0.40412068367004395 0.40412068367004395 0.40412068367004395
0.42535528540611267 0.42535528540611267 0.42535528540611267
0.45115512609481812 0.45115512609481812 0.45115512609481812
0.48315709829330444 0.48315709829330444 0.48315709829330444
0.52190709114074707 0.52190709114074707 0.52190709114074707
0.56592851877212524 0.56592851877212524 0.56592851877212524
0.61075294017791748 0.61075294017791748 0.61075294017791748
0.6466221809387207 0.6466221809387207 0.6466221809387207
0.32184606790542603 0.32184606790542603 0.32184606790542603
0.32246056199073792 0.32246056199073792 0.32246056199073792
0.32501235604286194 0.32501235604286194 0.32501235604286194
0.33049675822257996 0.33049675822257996 0.33049675822257996
0.33936229348182678 0.33936229348182678 0.33936229348182678
0.35156890749931335 0.35156890749931335 0.35156890749931335
0.36658447980880737 0.36658447980880737 0.36658447980880737
0.38351324200630188 0.38351324200630188 0.38351324200630188
0.40151438117027283 0.40151438117027283 0.40151438117027283
0.42045924067497253 0.42045924067497253 0.42045924067497253
0.44139090180397034 0.44139090180397034 0.44139090180397034
0.46634984016418457 0.46634984016418457 0.46634984016418457
0.49752512574195862 0.49752512574195862 0.49752512574195862
0.53584820032119751 0.53584820032119751 0.53584820032119751
0.57975119352340698 0.57975119352340698 0.57975119352340698
0.62445932626724243 0.62445932626724243 0.62445932626724243
0.66012215614318848 0.66012215614318848 0.66012215614318848
0.33037427067756653 0.33037427067756653 0.33037427067756653
0.33082017302513123 0.33082017302513123 0.33082017302513123
0.3334260880947113 0.3334260880947113 0.3334260880947113
0.33943256735801697 0.33943256735801697 0.33943256735801697
0.34947037696838379 0.34947037696838379 0.34947037696838379
0.36360961198806763 0.36360961198806763 0.36360961198806763
0.38125073909759521 0.38125073909759521 0.38125073909759521
0.40113666653633118 0.40113666653633118 0.40113666653633118
0.42180889844894409 0.42180889844894409 0.42180889844894409
0.44257277250289917 0.44257277250289917 0.44257277250289917
0.46424213051795959 0.46424213051795959 0.46424213051795959
0.48897719383239746 0.48897719383239746 0.48897719383239746
0.51941382884979248 0.51941382884979248 0.51941382884979248
0.55695325136184692 0.55695325136184692 0.55695325136184692
0.6000601053237915 0.6000601053237915 0.6000601053237915
0.64382576942443848 0.64382576942443848 0.64382576942443848
0.67857944965362549 0.67857944965362549 0.67857944965362549
0.3411848247051239 0.3411848247051239 0.3411848247051239
0.34115833044052124 0.34115833044052124 0.34115833044052124
0.34337946772575378 0.34337946772575378 0.34337946772575378
0.34941628575325012 0.34941628575325012 0.34941628575325012
0.36018854379653931 0.36018854379653931 0.36018854379653931
0.3760320246219635 0.3760320246219635 0.3760320246219635
0.39647385478019714 0.39647385478019714 0.39647385478019714
0.42005160450935364 0.42005160450935364 0.42005160450935364
0.44470033049583435 0.44470033049583435 0.44470033049583435
0.46902137994766235 0.46902137994766235 0.46902137994766235
0.49331304430961609 0.49331304430961609 0.49331304430961609
0.51933670043945312 0.51933670043945312 0.51933670043945312
0.54967665672302246 0.54967665672302246 0.54967665672302246
0.58607923984527588 0.58607923984527588 0.58607923984527588
0.62730526924133301 0.62730526924133301 0.62730526924133301
0.66878402233123779 0.66878402233123779 0.66878402233123779
0.70153969526290894 0.70153969526290894 0.70153969526290894
0.35442784428596497 0.35442784428596497 0.35442784428596497
0.35356178879737854 0.35356178879737854 0.35356178879737854
0.35481783747673035 0.35481783747673035 0.35481783747673035
0.36012175679206848 0.36012175679206848 0.36012175679206848
0.37073719501495361 0.37073719501495361 0.37073719501495361
0.38739877939224243 0.38739877939224243 0.38739877939224243
0.41001182794570923 0.41001182794570923 0.41001182794570923
0.43726441264152527 0.43726441264152527 0.43726441264152527
