ISP_LUT/Vasquez.cube
# 3D Color LUT 'Q-DDL_Pack_16 / Vasquez' (http://quickddl.net/free_color_luts)
TITLE "Vasquez"
LUT_3D_SIZE 5
DOMAIN_MIN 0.0 0.0 0.0
DOMAIN_MAX 1.0 1.0 1.0
0.0080001028254628181 0.01048091147094965 0.0091659463942050934
0.19342684745788574 0.0102653494104743 0.0088337678462266922
0.44734370708465576 0.018132669851183891 0.010053176432847977
0.69865047931671143 0.012580089271068573 0.01039391290396452
0.92635959386825562 0.017755622044205666 0.019079567864537239
0.010545138269662857 0.19389833509922028 0.010840680450201035
0.19358071684837341 0.19447436928749084 0.0043955114670097828
0.4440874457359314 0.21045155823230743 0.0023174381349235773
0.69803410768508911 0.22145265340805054 0.0017817978514358401
0.92708247900009155 0.22708339989185333 0.0026027623098343611
0.027312228456139565 0.44584107398986816 0.024194907397031784
0.2118186354637146 0.44539347290992737 0.013563322834670544
0.44668018817901611 0.45181897282600403 0.011635836213827133
0.69746321439743042 0.47489669919013977 0.010667145252227783
0.92816740274429321 0.49270722270011902 0.011052931658923626
0.032841093838214874 0.69589120149612427 0.029524562880396843
0.23274187743663788 0.69681668281555176 0.017421076074242592
0.46883031725883484 0.69594377279281616 0.012057103216648102
0.70652186870574951 0.70646309852600098 0.016639642417430878
0.92655098438262939 0.72600477933883667 0.0254234429448843
0.027940843254327774 0.92650270462036133 0.025054240599274635
0.24466264247894287 0.93013179302215576 0.01224280521273613
0.49319827556610107 0.93135499954223633 0.0027974534314125776
0.72290360927581787 0.92699003219604492 0.0083854012191295624
0.92905426025390625 0.92913460731506348 0.02193465456366539
0.011651108972728252 0.0081333080306649208 0.18142689764499664
0.19238090515136719 0.0051587843336164951 0.19056539237499237
0.44517412781715393 0.0082669602707028389 0.21035969257354736
0.69960969686508179 0.0046462817117571831 0.22657151520252228
0.92685621976852417 0.0044094114564359188 0.23945023119449615
0.0076238261535763741 0.19525271654129028 0.19441717863082886
0.19483937323093414 0.19277353584766388 0.19097694754600525
0.44555485248565674 0.19601352512836456 0.19250975549221039
0.70057457685470581 0.20355160534381866 0.19666512310504913
0.92843836545944214 0.20251369476318359 0.19577950239181519
0.023808935657143593 0.44349047541618347 0.20851114392280579
0.20904308557510376 0.44647923111915588 0.19906115531921387
0.44789525866508484 0.45156159996986389 0.19395910203456879
0.70034164190292358 0.46831929683685303 0.19174598157405853
0.93032413721084595 0.47864586114883423 0.1935935765504837
0.026551743969321251 0.69493484497070312 0.22412428259849548
0.22268892824649811 0.69978183507919312 0.20981909334659576
0.46139776706695557 0.69977915287017822 0.19378538429737091
0.70222169160842896 0.70349866151809692 0.19453956186771393
0.92623955011367798 0.72039222717285156 0.20495997369289398
0.02107682079076767 0.92748111486434937 0.22922348976135254
0.22998955845832825 0.93336701393127441 0.21083207428455353
0.47988000512123108 0.93351888656616211 0.18444418907165527
0.71589100360870361 0.9271169900894165 0.18805550038814545
0.92848670482635498 0.93060016632080078 0.20443406701087952
0.0088786063715815544 0.0047302879393100739 0.41893938183784485
0.1982315331697464 0.0025663780979812145 0.42618086934089661
0.45480769872665405 0.0043596117757260799 0.44278532266616821
0.70461326837539673 0.0045518288388848305 0.46898159384727478
0.92783570289611816 0.0047632683999836445 0.48356536030769348
0.0028048041276633739 0.20093518495559692 0.4262758195400238
0.18773502111434937 0.19245129823684692 0.4287562370300293
0.44743230938911438 0.19047147035598755 0.43458312749862671
0.70216542482376099 0.19282354414463043 0.44893664121627808
0.9274480938911438 0.19465018808841705 0.45851495862007141
0.014952357858419418 0.44651886820793152 0.43172350525856018
0.19712765514850616 0.44835355877876282 0.43019133806228638
0.44302457571029663 0.44572800397872925 0.42699095606803894
0.69876199960708618 0.45023441314697266 0.42888328433036804
0.92782944440841675 0.45817923545837402 0.4344765841960907
0.012558355927467346 0.69508206844329834 0.44912129640579224
0.19938512146472931 0.70172297954559326 0.44477236270904541
0.44375848770141602 0.70112758874893188 0.42801010608673096
0.69678008556365967 0.70269912481307983 0.42051252722740173
0.92571228742599487 0.71454161405563354 0.42388555407524109
0.0082217855378985405 0.92759758234024048 0.46238887310028076
0.20047825574874878 0.93447524309158325 0.45665982365608215
0.45097449421882629 0.93189680576324463 0.42931351065635681
0.70201027393341064 0.92766916751861572 0.41660025715827942
0.92589610815048218 0.93157124519348145 0.4192633330821991
0.0094658238813281059 0.0084392139688134193 0.63639575242996216
0.20416103303432465 0.0015825334703549743 0.63921219110488892
0.45994666218757629 0.0032008145935833454 0.64824020862579346
0.70769500732421875 0.0064857415854930878 0.6677742600440979
0.92776602506637573 0.01191652100533247 0.67920714616775513
0.0016323969466611743 0.21853010356426239 0.6409342885017395
0.18591532111167908 0.19737525284290314 0.64183908700942993
0.44926106929779053 0.19078452885150909 0.64599299430847168
0.70480108261108398 0.19638709723949432 0.66057521104812622
0.92795240879058838 0.20529018342494965 0.67131632566452026
0.0035460600629448891 0.46862286329269409 0.64366883039474487
0.18713733553886414 0.45885884761810303 0.64502382278442383
0.44288814067840576 0.44599655270576477 0.64487290382385254
0.70179307460784912 0.44488885998725891 0.65055042505264282
0.92949920892715454 0.45244401693344116 0.65707540512084961
0.0043946774676442146 0.70178914070129395 0.65591192245483398
0.1889297217130661 0.70474588871002197 0.65905857086181641
0.43938717246055603 0.70198619365692139 0.64966541528701782
0.69825196266174316 0.70022082328796387 0.64346927404403687
0.92835348844528198 0.70638114213943481 0.64420974254608154
0.0070847407914698124 0.92551690340042114 0.6704336404800415
0.19511757791042328 0.93085426092147827 0.67290633916854858
0.44290387630462646 0.92961281538009644 0.65407818555831909
0.69823372364044189 0.92651820182800293 0.6389087438583374
0.9254487156867981 0.92867046594619751 0.63530427217483521
0.016761394217610359 0.018339814618229866 0.81975603103637695
0.21053679287433624 0.00086879392620176077 0.82052958011627197
0.45959833264350891 0.0020236296113580465 0.8246535062789917
0.7080499529838562 0.009868863970041275 0.83347165584564209
0.92759841680526733 0.021567834541201591 0.8388063907623291
0.0025517325848340988 0.2367771714925766 0.82048600912094116
0.18901847302913666 0.19715890288352966 0.81973433494567871
0.4532257616519928 0.19031310081481934 0.82213306427001953
0.70800262689590454 0.20422437787055969 0.83130663633346558
0.92995333671569824 0.2199849933385849 0.83859509229660034
0.002952133072540164 0.48961472511291504 0.8225787878036499
0.1919720321893692 0.46851566433906555 0.82263344526290894
0.45275008678436279 0.44902271032333374 0.82315033674240112
0.70891320705413818 0.44878268241882324 0.82909464836120605
0.93338859081268311 0.45815348625183105 0.83478766679763794
0.0089613161981105804 0.71598279476165771 0.83047980070114136
0.20253859460353851 0.7110169529914856 0.83274507522583008
0.45107170939445496 0.70397162437438965 0.8290250301361084
0.70662784576416016 0.70170110464096069 0.82572507858276367
0.93228435516357422 0.70769309997558594 0.8263552188873291
0.019787009805440903 0.92746412754058838 0.83862560987472534
0.21509677171707153 0.92906439304351807 0.84179937839508057
0.45449593663215637 0.92856758832931519 0.83353078365325928
0.70437294244766235 0.92728787660598755 0.82257747650146484
0.92744153738021851 0.9291757345199585 0.81932926177978516
