ISP_LUT/Vasquez.cube
# 3D Color LUT 'Q-DDL_Pack_16 / Vasquez' (http://quickddl.net/free_color_luts)
TITLE "Vasquez"
LUT_3D_SIZE 17
DOMAIN_MIN 0.0 0.0 0.0
DOMAIN_MAX 1.0 1.0 1.0
0.0080001028254628181 0.01048091147094965 0.0091659463942050934
0.033090505748987198 0.0098426798358559608 0.0085963541641831398
0.074441976845264435 0.0088553000241518021 0.0079725375398993492
0.13003808259963989 0.0086253909394145012 0.0078693367540836334
0.19342684745788574 0.0102653494104743 0.0088337678462266922
0.25832480192184448 0.013176782056689262 0.010180403478443623
0.32217890024185181 0.016026439145207405 0.010958629660308361
0.38497170805931091 0.017850158736109734 0.010852918028831482
0.44734370708465576 0.018132669851183891 0.010053176432847977
0.50979852676391602 0.016875948756933212 0.0090377591550350189
0.57254314422607422 0.014837118797004223 0.0084476228803396225
0.63554716110229492 0.013142822310328484 0.0088487416505813599
0.69865047931671143 0.012580089271068573 0.01039391290396452
0.76156657934188843 0.013207209296524525 0.012719896622002125
0.82348322868347168 0.014614968560636044 0.015242970548570156
0.88147610425949097 0.016319669783115387 0.017490014433860779
0.92635959386825562 0.017755622044205666 0.019079567864537239
0.0076338802464306355 0.03671843558549881 0.009229050949215889
0.03284454345703125 0.035880774259567261 0.0083316592499613762
0.074450641870498657 0.034920137375593185 0.007291366346180439
0.12998776137828827 0.035253655165433884 0.0065088891424238682
0.19303430616855621 0.038049746304750443 0.0066822427324950695
0.25768306851387024 0.042356688529253006 0.0074265766888856888
0.32147601246833801 0.046427525579929352 0.0078795682638883591
0.38430210947990417 0.04911673441529274 0.0076793553307652473
0.44674906134605408 0.049935128539800644 0.0069462652318179607
0.50930964946746826 0.048960395157337189 0.0060479226522147655
0.57217758893966675 0.047035396099090576 0.0054826624691486359
0.63530045747756958 0.045568235218524933 0.0057330136187374592
0.69849884510040283 0.045578300952911377 0.0069255190901458263
0.76147603988647461 0.047020237892866135 0.0087105510756373405
0.82341635227203369 0.049288958311080933 0.010625704191625118
0.88139998912811279 0.051771923899650574 0.012337197549641132
0.92625957727432251 0.053788911551237106 0.01357607264071703
0.0073731406591832638 0.078120797872543335 0.008980555459856987
0.032862294465303421 0.07729676365852356 0.007761277724057436
0.074702225625514984 0.076629713177680969 0.0065941009670495987
0.12988966703414917 0.077559798955917358 0.0054920734837651253
0.19231107831001282 0.080958813428878784 0.0049579031765460968
0.25658139586448669 0.085861966013908386 0.0049946350045502186
0.3203161358833313 0.090595349669456482 0.0050543942488729954
0.38324928283691406 0.094005152583122253 0.0048079518601298332
0.44586139917373657 0.095639944076538086 0.0042211581021547318
0.50860810279846191 0.095629230141639709 0.0034695575013756752
0.57166880369186401 0.094749532639980316 0.0029289398808032274
0.63497722148895264 0.094278626143932343 0.0030322610400617123
0.69833844900131226 0.095107235014438629 0.0038787827361375093
0.76144009828567505 0.097105905413627625 0.0050978846848011017
0.82345354557037354 0.099691577255725861 0.0062779709696769714
0.88145667314529419 0.10233709961175919 0.0072434819303452969
0.92630314826965332 0.10444659739732742 0.007937353104352951
0.0080660358071327209 0.13227999210357666 0.0091065457090735435
0.034324824810028076 0.13135506212711334 0.0074524004012346268
0.076457232236862183 0.13066102564334869 0.0061494447290897369
0.13087046146392822 0.13151763379573822 0.0050386013463139534
0.19216881692409515 0.13456135988235474 0.0041897594928741455
0.2556997537612915 0.13908068835735321 0.0037442827597260475
0.31917461752891541 0.14378011226654053 0.0034530458506196737
0.38213443756103516 0.14767393469810486 0.0031251257751137018
0.44489094614982605 0.15039043128490448 0.0026685614138841629
0.50781995058059692 0.15203769505023956 0.0021090046502649784
0.57108068466186523 0.15304233133792877 0.0016745927277952433
0.6346052885055542 0.15402403473854065 0.0016752233495935798
0.69818800687789917 0.15544167160987854 0.0021727003622800112
0.7614893913269043 0.15731966495513916 0.0028763357549905777
0.82364773750305176 0.15943561494350433 0.0034841818269342184
0.88172388076782227 0.16153448820114136 0.0039309253916144371
0.92658579349517822 0.16322048008441925 0.0042682420462369919
0.010545138269662857 0.19389833509922028 0.010840680450201035
0.038175228983163834 0.1928119957447052 0.0086980070918798447
0.08066374808549881 0.19187313318252563 0.0069147460162639618
0.13393472135066986 0.19224107265472412 0.005533421877771616
0.19358071684837341 0.19447436928749084 0.0043955114670097828
0.2558516263961792 0.1981799453496933 0.0035879088100045919
0.31865745782852173 0.20248469710350037 0.003025110112503171
0.38136681914329529 0.2066606879234314 0.002635639626532793
0.4440874457359314 0.21045155823230743 0.0023174381349235773
0.50708037614822388 0.21389241516590118 0.0019849485252052546
0.57047301530838013 0.21695464849472046 0.0017036914359778166
0.63419771194458008 0.21948185563087463 0.0016245680162683129
0.69803410768508911 0.22145265340805054 0.0017817978514358401
0.76159763336181641 0.22309048473834991 0.0020324666984379292
0.82396978139877319 0.22458626329898834 0.0022375783883035183
0.88217359781265259 0.22597439587116241 0.0024100854061543941
0.92708247900009155 0.22708339989185333 0.0026027623098343611
0.014479911886155605 0.25764933228492737 0.013990943320095539
0.043798856437206268 0.25663664937019348 0.011464433744549751
0.086780168116092682 0.25566139817237854 0.0090905241668224335
0.13891136646270752 0.25565093755722046 0.0071926061064004898
0.19673097133636475 0.2571226954460144 0.0056358901783823967
0.25740277767181396 0.25995868444442749 0.0044825072400271893
0.31915256381034851 0.26366940140724182 0.003724303562194109
0.381265789270401 0.2678132951259613 0.003311168635264039
0.44367498159408569 0.2722504734992981 0.0031108050607144833
0.50652837753295898 0.27694305777549744 0.0029558385722339153
0.5699201226234436 0.28156790137290955 0.0027773419860750437
0.63377833366394043 0.28551840782165527 0.0026039294898509979
0.69785600900650024 0.28843396902084351 0.0024716414045542479
0.76170480251312256 0.29048815369606018 0.0023805003147572279
0.82432734966278076 0.29198786616325378 0.0023400462232530117
0.88269078731536865 0.29310619831085205 0.0024114444386214018
0.92766541242599487 0.29386815428733826 0.0025921708438545465
0.019027110189199448 0.32103827595710754 0.01762046106159687
0.049975760281085968 0.32030600309371948 0.014861241914331913
0.093612730503082275 0.31954067945480347 0.012071178294718266
0.1449444591999054 0.31939113140106201 0.0097508076578378677
0.20118020474910736 0.32029774785041809 0.0078497594222426414
0.26025336980819702 0.32232150435447693 0.0064203902147710323
0.3207601010799408 0.32527300715446472 0.0055251652374863625
0.38200989365577698 0.32897058129310608 0.0051171546801924706
0.44383588433265686 0.33339467644691467 0.0050174337811768055
0.50631499290466309 0.33851933479309082 0.0049807513132691383
0.56952738761901855 0.34399804472923279 0.0048285671509802341
0.63339847326278687 0.34915661811828613 0.0045184511691331863
0.69764316082000732 0.35344186425209045 0.0041292496025562286
0.76173526048660278 0.35673016309738159 0.0037936421576887369
0.8245883584022522 0.35910037159919739 0.0036318013444542885
0.88310474157333374 0.36064746975898743 0.003720215754583478
0.92814528942108154 0.36149853467941284 0.0039719450287520885
0.023481838405132294 0.38367155194282532 0.02112470380961895
0.055834308266639709 0.38324129581451416 0.018257066607475281
0.10024849325418472 0.38274961709976196 0.01524386927485466
0.15122997760772705 0.3825867772102356 0.01271654199808836
0.20635442435741425 0.38307872414588928 0.010691878385841846
0.26410600543022156 0.38436079025268555 0.0092018060386180878
0.32342109084129333 0.38643291592597961 0.0083157243207097054
0.38370060920715332 0.38930931687355042 0.0080048684030771255
0.44475454092025757 0.39310905337333679 0.0080657396465539932
0.5066453218460083 0.39794421195983887 0.0081685734912753105
0.56947791576385498 0.40366682410240173 0.0080195600166916847
0.63318842649459839 0.40974518656730652 0.0075354576110839844
0.69744765758514404 0.41550403833389282 0.0068872375413775444
0.76165288686752319 0.4204445481300354 0.0063594374805688858
0.82463973760604858 0.42426136136054993 0.0061650476418435574
0.88325440883636475 0.42681601643562317 0.0063690780662000179
0.92834103107452393 0.42818993330001831 0.0067706801928579807
0.027312228456139565 0.44584107398986816 0.024194907397031784
0.060890696942806244 0.4456406831741333 0.021329501643776894
0.10619638115167618 0.44537079334259033 0.018197594210505486
0.15726436674594879 0.44522109627723694 0.015582957305014133
0.2118186354637146 0.44539347290992737 0.013563322834670544
0.26868724822998047 0.44602042436599731 0.012156801298260689
0.32706397771835327 0.4471893310546875 0.011418575420975685
0.386452317237854 0.44903591275215149 0.011318174190819263
0.44668018817901611 0.45181897282600403 0.011635836213827133
0.50783842802047729 0.45587033033370972 0.011974135413765907
0.57009750604629517 0.46135589480400085 0.011936893686652184
0.63342773914337158 0.46795439720153809 0.011413776315748692
0.69746321439743042 0.47489669919013977 0.010667145252227783
0.76154917478561401 0.48136597871780396 0.010101334191858768
0.82448345422744751 0.48671263456344604 0.01001060102134943
0.88308274745941162 0.49052929878234863 0.01043669693171978
0.92816740274429321 0.49270722270011902 0.011052931658923626
0.030208650976419449 0.50791740417480469 0.026655307039618492
0.064927428960800171 0.50787359476089478 0.023856490850448608
0.11125319451093674 0.50776183605194092 0.020654432475566864
0.16280218958854675 0.50763201713562012 0.017954694107174873
0.21731887757778168 0.50757676362991333 0.01591200940310955
0.27381879091262817 0.50768673419952393 0.014536874368786812
0.3316592276096344 0.50806784629821777 0.013879490084946156
0.39041736721992493 0.50891321897506714 0.0139197101816535
0.4499376118183136 0.51058501005172729 0.014447477646172047
0.51034116744995117 0.51362007856369019 0.015038491226732731
0.57187509536743164 0.51848924160003662 0.015230316668748856
0.63456875085830688 0.52508085966110229 0.014891859143972397
0.69805961847305298 0.53258723020553589 0.014343623071908951
0.76169967651367188 0.54001551866531372 0.014037199318408966
0.82430750131607056 0.54651165008544922 0.014271728694438934
0.88270622491836548 0.55145132541656494 0.015033816918730736
0.92769265174865723 0.5544583797454834 0.015896545723080635
0.032063808292150497 0.5701909065246582 0.02839144691824913
0.067896321415901184 0.57026374340057373 0.025661459192633629
0.11537539213895798 0.57028305530548096 0.022407498210668564
0.1677498072385788 0.57020741701126099 0.01957411877810955
0.22271701693534851 0.57004731893539429 0.017390450462698936
0.27937600016593933 0.56984442472457886 0.015869360417127609
0.3371683657169342 0.56969094276428223 0.01507255807518959
0.39570125937461853 0.56979238986968994 0.015016551129519939
0.45480334758758545 0.57055449485778809 0.015543101355433464
0.51458120346069336 0.57261127233505249 0.016271237283945084
0.57531088590621948 0.57659631967544556 0.016750017181038857
0.63709509372711182 0.58256709575653076 0.016830004751682281
0.69966685771942139 0.58981603384017944 0.016798494383692741
0.7624785304069519 0.59736651182174683 0.017056774348020554
0.82442843914031982 0.60430824756622314 0.017856011167168617
0.88237708806991577 0.60988026857376099 0.019118363037705421
0.92711305618286133 0.61345678567886353 0.020319664850831032
0.032904814928770065 0.63283628225326538 0.029346929863095284
0.069847434759140015 0.63301801681518555 0.026649162173271179
0.11859589815139771 0.6331794261932373 0.023334033787250519
0.1720755398273468 0.63322275876998901 0.020324273034930229
0.22790470719337463 0.63310468196868896 0.017868952825665474
0.28520286083221436 0.63282722234725952 0.015995137393474579
0.34343749284744263 0.63245701789855957 0.014799057506024837
0.40219911932945251 0.63217979669570923 0.01436250377446413
0.46125230193138123 0.63237458467483521 0.014623303897678852
0.520621657371521 0.63363754749298096 0.015318021178245544
0.58054280281066895 0.63658612966537476 0.016092102974653244
0.6412011981010437 0.64139652252197266 0.016780463978648186
0.70252531766891479 0.64760816097259521 0.017529238015413284
0.76415902376174927 0.65443378686904907 0.01859714463353157
0.82512891292572021 0.66102808713912964 0.020157359540462494
0.88236194849014282 0.66658389568328857 0.02205347828567028
0.92666935920715332 0.67031228542327881 0.023646960034966469
0.032841093838214874 0.69589120149612427 0.029524562880396843
0.070884957909584045 0.69619071483612061 0.026825414970517159
0.12097636610269547 0.69652271270751953 0.023445876315236092
0.1757531464099884 0.69675636291503906 0.02024318091571331
0.23274187743663788 0.69681668281555176 0.017421076074242592
0.291047602891922 0.69667679071426392 0.015036721713840961
0.35012415051460266 0.69637078046798706 0.013250128366053104
0.40950256586074829 0.69603133201599121 0.012236110866069794
0.46883031725883484 0.69594377279281616 0.012057103216648102
0.52799373865127563 0.69657057523727417 0.012603466399013996
0.58716028928756714 0.69842904806137085 0.013648886233568192
0.6466141939163208 0.70178550481796265 0.015007712878286839
0.70652186870574951 0.70646309852600098 0.016639642417430878
0.76676130294799805 0.71194660663604736 0.018598861992359161
0.8265221118927002 0.71754926443099976 0.020939311012625694
0.88282680511474609 0.72251677513122559 0.023449577391147614
0.92655098438262939 0.72600477933883667 0.0254234429448843
0.032036401331424713 0.75916433334350586 0.028985319659113884
0.071145668625831604 0.7595902681350708 0.026293110102415085
0.12258759140968323 0.76011431217193604 0.022890197113156319
0.17874068021774292 0.76058542728424072 0.019506311044096947
0.23703698813915253 0.76091182231903076 0.016285203397274017
0.29655179381370544 0.76104497909545898 0.013342981226742268
0.35670530796051025 0.76098072528839111 0.010935992002487183
0.41694369912147522 0.76077365875244141 0.0093392683193087578
0.47676190733909607 0.76057350635528564 0.0087082879617810249
0.53587740659713745 0.76067125797271729 0.0090551599860191345
0.59439367055892944 0.76147603988647461 0.010278197936713696
0.6527104377746582 0.76332974433898926 0.012200153432786465
0.71122348308563232 0.76629918813705444 0.01462831161916256
0.77003616094589233 0.77013570070266724 0.017394596710801125
0.8285062313079834 0.77436000108718872 0.02039305679500103
0.88377690315246582 0.77835172414779663 0.02340322732925415
0.92682713270187378 0.78131026029586792 0.025719361379742622
0.030710663646459579 0.82181441783905029 0.027856439352035522
0.070803411304950714 0.8223615288734436 0.025237953290343285
0.123516745865345 0.82307255268096924 0.021892298012971878
0.18099236488342285 0.82378339767456055 0.0183668602257967
0.24056993424892426 0.82439112663269043 0.014800027944147587
0.30129152536392212 0.82483047246932983 0.011410128325223923
0.36254316568374634 0.82505857944488525 0.0085844025015830994
0.42368972301483154 0.82504749298095703 0.006644474808126688
0.48407658934593201 0.82480758428573608 0.0057178796268999577
0.54325693845748901 0.82446449995040894 0.0058540981262922287
0.60128301382064819 0.82433575391769409 0.0070562064647674561
0.65866637229919434 0.82482248544692993 0.0092317787930369377
0.71599006652832031 0.82616966962814331 0.012171819806098938
0.77353566884994507 0.82834523916244507 0.015536629594862461
0.83080822229385376 0.83107519149780273 0.019017532467842102
0.88507592678070068 0.83391398191452026 0.022344691678881645
0.92744886875152588 0.83617877960205078 0.02489272877573967
0.029183587059378624 0.88076251745223999 0.0263829305768013
0.070104427635669708 0.88140708208084106 0.023936400189995766
0.12389753013849258 0.88226783275604248 0.020709829404950142
0.18249386548995972 0.88317036628723145 0.017108943313360214
0.24314652383327484 0.88400310277938843 0.013332038186490536
0.30486643314361572 0.88468557596206665 0.0097327763214707375
0.36701440811157227 0.88514149188995361 0.0068239974789321423
0.42890268564224243 0.88527703285217285 0.0048300419002771378
0.48977923393249512 0.88499599695205688 0.0037804313469678164
0.54908591508865356 0.88430190086364746 0.0037614763714373112
0.60683834552764893 0.88344252109527588 0.0048112906515598297
0.66361540555953979 0.8828468918800354 0.0068880440667271614
0.72011077404022217 0.8828660249710083 0.0099273361265659332
0.77671849727630615 0.88361763954162598 0.013585408218204975
0.83305144309997559 0.88499569892883301 0.017345169559121132
0.88648992776870728 0.88672584295272827 0.020804688334465027
0.92828041315078735 0.88827919960021973 0.023407477885484695
0.027940843254327774 0.92650270462036133 0.025054240599274635
0.069420874118804932 0.92720615863800049 0.022809833288192749
0.12395024299621582 0.92815631628036499 0.019702509045600891
0.18330274522304535 0.92917120456695557 0.016087891533970833
0.24466264247894287 0.93013179302215576 0.01224280521273613
0.30701526999473572 0.93094551563262939 0.0086323823779821396
0.36970633268356323 0.93151241540908813 0.0058202329091727734
0.4320279061794281 0.93169927597045898 0.0038783655036240816
0.49319827556610107 0.93135499954223633 0.0027974534314125776
0.55262702703475952 0.93042367696762085 0.0026956726796925068
0.61030906438827515 0.92910879850387573 0.0036114302929490805
0.66682654619216919 0.9278331995010376 0.0054958262480795383
0.72290360927581787 0.92699003219604492 0.0083854012191295624
0.77898496389389038 0.9267803430557251 0.012081591412425041
0.83474862575531006 0.92720937728881836 0.015938572585582733
0.88765424489974976 0.9281267523765564 0.019409680739045143
0.92905426025390625 0.92913460731506348 0.02193465456366539
0.0079513760283589363 0.010740064084529877 0.03396272286772728
0.033159874379634857 0.0098025854676961899 0.033327553421258926
0.074565641582012177 0.0083954865112900734 0.032963186502456665
0.12990674376487732 0.0076550017111003399 0.033681251108646393
0.19289498031139374 0.0087155615910887718 0.036105215549468994
0.25756984949111938 0.011080509983003139 0.039259523153305054
0.3213958740234375 0.013554125092923641 0.041718706488609314
0.38424283266067505 0.015291430056095123 0.042822696268558502
0.44671952724456787 0.015754509717226028 0.042652972042560577
0.50933468341827393 0.014686941169202328 0.04184940829873085
0.57227659225463867 0.0125230448320508 0.041464336216449738
0.63547050952911377 0.010420624166727066 0.042525913566350937
0.69871294498443604 0.0094741163775324821 0.045295137912034988
0.76169735193252563 0.009812929667532444 0.049025449901819229
0.82361656427383423 0.010951029136776924 0.052692849189043045
0.88156819343566895 0.012410726398229599 0.055666379630565643
0.92640185356140137 0.013682019896805286 0.057637933641672134
0.0072850408032536507 0.037322718650102615 0.034697696566581726
0.032642006874084473 0.035995177924633026 0.033554039895534515
0.07451532781124115 0.03445841372013092 0.032546818256378174
0.13011568784713745 0.034200750291347504 0.0323142409324646
0.19298785924911499 0.03632020577788353 0.033629182726144791
0.25743496417999268 0.039946570992469788 0.035818945616483688
0.32108679413795471 0.043501924723386765 0.037574451416730881
0.38383477926254272 0.045943919569253922 0.038191739469766617
0.44629496335983276 0.04672941192984581 0.037640035152435303
0.50897258520126343 0.045671291649341583 0.036453589797019958
0.57202363014221191 0.043355092406272888 0.035669069737195969
0.63533073663711548 0.041325084865093231 0.036395519971847534
0.69866013526916504 0.040906701236963272 0.038886517286300659
0.76169407367706299 0.042038913816213608 0.042231757193803787
0.82362151145935059 0.044012241065502167 0.045353919267654419
0.8815464973449707 0.046225443482398987 0.047755584120750427
0.92634224891662598 0.048067182302474976 0.049332309514284134
0.0065880068577826023 0.078917562961578369 0.035348512232303619
0.032197751104831696 0.077566176652908325 0.033727347850799561
0.074508197605609894 0.0763387531042099 0.032417234033346176
0.13012593984603882 0.076744817197322845 0.031606227159500122
0.19269149005413055 0.079482436180114746 0.031763292849063873
0.25687041878700256 0.083629816770553589 0.03263125941157341
0.32040324807167053 0.08770018070936203 0.033361673355102539
0.38314461708068848 0.090656638145446777 0.033394273370504379
0.44567659497261047 0.092025861144065857 0.032563202083110809
0.5084846019744873 0.09173651784658432 0.031177440658211708
0.57169920206069946 0.090376690030097961 0.030133185908198357
0.6351737380027771 0.089362017810344696 0.030502190813422203
0.69865047931671143 0.089802294969558716 0.032499313354492188
0.76179283857345581 0.091484524309635162 0.035138700157403946
0.82377421855926514 0.093729794025421143 0.037374977022409439
0.88169682025909424 0.096047371625900269 0.038906969130039215
0.92646074295043945 0.097937256097793579 0.039889052510261536
0.0068415864370763302 0.13275627791881561 0.036443721503019333
0.033103175461292267 0.13154740631580353 0.034311454743146896
0.075761467218399048 0.13053660094738007 0.032782621681690216
0.1308637410402298 0.13103926181793213 0.03175542876124382
0.19262576103210449 0.13354334235191345 0.031118862330913544
0.25627455115318298 0.13738164305686951 0.030813490971922874
0.31961542367935181 0.14142581820487976 0.030540172010660172
0.38237252831459045 0.14480848610401154 0.030080383643507957
0.44501084089279175 0.14720010757446289 0.029245933517813683
0.50795912742614746 0.1486179381608963 0.028085252270102501
0.57133728265762329 0.1493251621723175 0.027169199660420418
0.63500142097473145 0.14990130066871643 0.027270127087831497
0.69868355989456177 0.15086311101913452 0.028517793864011765
0.76201432943344116 0.15224663913249969 0.030144385993480682
0.82412779331207275 0.15384547412395477 0.031378239393234253
0.88210582733154297 0.15547294914722443 0.032114282250404358
0.92686814069747925 0.15684124827384949 0.032622124999761581
0.0090129124000668526 0.19385471940040588 0.039392106235027313
0.036549262702465057 0.1927916556596756 0.036750242114067078
0.079512119293212891 0.1918339729309082 0.034641105681657791
0.13354825973510742 0.19204902648925781 0.033127285540103912
0.19384098052978516 0.19392131268978119 0.031816482543945312
0.25642529129981995 0.19712665677070618 0.030648928135633469
0.3192424476146698 0.20092512667179108 0.029667682945728302
0.38183382153511047 0.20468899607658386 0.028948396444320679
0.44446751475334167 0.20824927091598511 0.028331946581602097
0.50747227668762207 0.21163809299468994 0.027637230232357979
0.57095837593078613 0.21466098725795746 0.027046609669923782
0.63480192422866821 0.21692794561386108 0.026936953887343407
0.69872963428497314 0.21834014356136322 0.027370193973183632
0.76232337951660156 0.21926969289779663 0.027956586331129074
0.82465070486068726 0.22005067765712738 0.028336979448795319
0.88274842500686646 0.22081291675567627 0.028575478121638298
0.92754554748535156 0.22149738669395447 0.028882740065455437
0.012832824140787125 0.25731220841407776 0.043982472270727158
0.04206407442688942 0.25648710131645203 0.040985535830259323
0.085437245666980743 0.25567308068275452 0.038177687674760818
0.13825735449790955 0.25566768646240234 0.035949617624282837
0.19673265516757965 0.25695303082466125 0.03400605171918869
0.25781366229057312 0.25948351621627808 0.03230179101228714
0.31970927119255066 0.26287266612052917 0.030991064384579659
0.38182452321052551 0.26676148176193237 0.030225809663534164
0.44422143697738647 0.27109745144844055 0.029847852885723114
0.50711411237716675 0.27586087584495544 0.029538026079535484
0.57059788703918457 0.28057283163070679 0.029179878532886505
0.63456928730010986 0.284354567527771 0.028853951022028923
0.69874352216720581 0.28673359751701355 0.028614159673452377
